SalmaneSossey/bcr-arm-control-fk-ai/bcr_ws/src/bcr_arm_gazebo/data/fk_dataset.csv
q1,q2,q3,q4,q5,q6,q7,x,y,z
3.4408879698629002,-0.24448624099179073,4.503989874086964,0.7894721162374556,-5.097132510531122,1.9024894065470237,3.279914656998833,-0.05437206439529066,-0.36137689247821403,0.7441850071979165
3.5929676742785395,-1.4875454692978165,-0.6231526200316768,-0.5168079030696751,5.3601682599384395,0.5754604803226582,4.053885862681624,-0.7854401208296216,-0.2865750165776971,0.07653098587134882
-0.7107176627287206,-1.0910451128608925,0.685584924918885,-1.7447309755832987,4.11504752022683,0.5266575964882594,3.2415820154722956,0.589031440838456,-0.1423776817744718,0.02778957557837298
-1.8271538402888536,1.882792097579613,4.937601283806804,1.1135339882950475,-3.8353378293792875,-0.1331159850918633,-5.729824701712407,0.5215353597231889,0.34140302579298387,0.06912414545121091
-4.3421239796316,0.7321958129698185,3.0742126782021826,1.87003892973684,-2.187633501784812,-0.5181611758605245,-0.3823790103758524,-0.11973589798386824,0.1334506054725926,0.5938989339734716
-3.900239729901372,-1.4803139786581134,-0.30514612660227236,-1.0923626037964635,2.1328637732123292,-0.25139232451067706,4.178438142486438,-0.5078521878275728,0.5125747539889777,-0.11021131265509894
2.5153296811482493,-0.7505334344718357,4.173183105523726,1.2190574299872075,-1.413271559381009,-0.8466875842790236,2.292143529925693,-0.546909474587056,-0.02810307839698563,0.46078105181212253
-4.5247088058670695,-1.2003671900995667,-6.187529891927371,1.1476975100085536,2.070526758795924,0.8206615145053404,3.5259566296359166,-0.002232738197833567,0.388567794739355,0.7106960520720663
-0.5160178592384499,0.27496478381157496,-4.524149703516622,-1.5418797058561062,2.115141200088323,-0.11561517542746991,0.8193654974037319,0.007200683556642877,0.43927833203403144,0.6849394856509741
3.3283856491452815,0.5388732800023632,0.6729572722644273,0.23682864298165418,-2.462386768333591,-1.8767286617282424,-0.7948295912415286,0.30682020816944106,0.21137179259886268,0.6892342498980204
-3.5848165093867133,-0.3658854251014554,4.438742600248166,-1.064242056538637,-5.547717564385331,-0.8744644319120138,-2.5924624024504537,-0.09543387577736714,0.38999499069811516,0.6922986534080889
2.0336714249698025,0.22812860936511337,3.565761506376554,0.6572541613095502,-1.175781020312714,1.2560815386641386,-4.182820125959239,-0.15806394013862915,0.17459723760390838,0.9379096755300467
-5.994736361438712,-1.639808556897433,2.792833443491415,-0.15249107899445047,-4.254426455337962,0.004179100413454151,-4.366959989922605,0.8100786777258031,0.17830503421898974,0.07033786870396183
2.4657839109763655,-0.2153748977038772,-1.4943734002281799,-0.7939516434084939,1.6363493695732387,-0.5527495577864383,-5.179117013389772,-0.135223214657759,0.3688364042856803,0.8626525918938885
-4.797845869366328,1.8475906581980581,5.131773475287544,0.7988285352429982,-2.9406732840684344,1.8767055093908955,3.501111353810381,-0.2520813068189432,-0.6362439605027281,0.016980883368837393
2.724140775836985,-0.20255399142484531,-2.860645983224803,-1.6144361513860028,5.056686100590652,-0.17689484066555572,-3.7383161381719074,0.24528459672923564,-0.06293262115003921,0.6915056938572539
-2.4371848006678047,0.3168782757675839,-4.059733846283249,1.426457136369502,3.247005294730239,0.8778518238037472,-0.8529114204246975,-0.3425809520185776,0.15252136155499169,0.7250397163948415
1.5989990392226865,0.3363918756509423,1.8820733155285394,-1.6622227154404436,-1.057459028737143,-1.83354330455243,-0.07547531028884258,-0.23582282134396504,-0.07954684215758188,0.6112378735237086
-2.1369431731002164,-1.4219032445358124,-4.981258725404752,0.3505782887108482,-4.137352315176711,1.7004804735071888,1.0181279146369606,-0.5274284095019668,-0.5566728413484398,0.18954169723572134
-1.9233152550424464,0.363661965925667,-5.993583379866999,1.8342368529657813,-0.22226883199717307,1.1309409090011449,-5.240911200974172,0.030597782605529297,0.3386965354587009,0.26259726907325887
-0.16757136467270595,-0.03717202258191632,5.499100274485785,0.2869122095043015,-0.3329731227246606,-0.9320973476324257,-2.1154933933775446,0.03275542519174879,-0.001267702155597475,0.9341791789351863
0.2596453750425143,-0.24435415877981326,-6.00855227670305,1.3051676967774313,4.975779294307471,-1.439003644005557,0.6786939628504607,-0.0011252476562234187,-0.18217566804226726,0.6703489083372612
-4.9162886913388295,0.6889603721592468,-2.7477036749820556,0.6376905387676071,2.8510523554432465,1.074589967670628,-4.926773718793939,-0.16023944586777472,-0.2199654052029622,0.9536433377638109
5.225108774928356,-1.0791440364204767,-5.810098294427182,0.21940987756593344,-1.621216114687769,1.3191589725296526,3.8716384891276308,0.32366836406980193,-0.552406320200949,0.6602583347983076
-2.296735506146695,1.8115975802789799,-2.62607195296011,0.060228516926858156,-3.0650784624709098,1.7441742801958533,-4.2125258111698525,0.4835864697369053,0.576425442410103,0.06225723371254492
-5.715922620432348,-0.25961175998784825,6.184237084541313,1.5667090650196558,3.122516724379282,1.5631699635140994,4.9416897946051614,-0.16876809047208588,-0.06646380278624328,0.7139643997645558
0.23686100645380037,-0.736283792676828,3.41647614731401,0.6466450526710443,-1.5868589253462018,-1.622133327753939,3.099677518543767,0.49915002381363177,0.2772701187182417,0.4639927737996776
-2.98349592000882,1.747252602135117,-3.2534095779285996,-1.508968270354056,4.158775161888822,-1.3868627335020238,-4.028390049538798,0.5239841015119295,-0.04382070318571799,-0.07844473031855209
1.2482478615017945,1.4982481633498579,-3.8127805986249603,-0.7587053083996209,3.4842047683091897,1.8873057042438695,0.009309298701419166,-0.32607964105276005,-0.5563490049550436,0.0790786223454673
-4.472647367956291,-1.9442548491671938,-3.395520263214378,-1.4727111288539159,2.23139294057749,-1.5126699814858755,0.07950394115515014,-0.12030952380458818,0.5846780679461694,0.17119760015305427
2.4399361916746534,0.32446643688360943,-3.7708178151496763,1.2164981047290508,2.7055135479744683,0.955936015662167,-4.633914640440146,-0.01867185389072399,0.301108859634313,0.8378878093056531
-4.725652226151672,1.7102502040260306,-1.2864178855587456,-0.796205232876241,-0.1433843903847416,0.6514568510543297,5.722628108509942,0.22965240176551646,-0.7831801615474324,0.22938740866830604
-2.6822353903613894,1.6992337172481085,-5.967764788188621,0.22079216930729872,1.6827274027144288,-1.5764103849969868,-4.517334660877258,0.5815377857031979,0.2221481687045353,0.028881625919984527
-1.0159241493872235,1.8649276485727269,1.2062944686237227,1.732092886400845,3.822773100098913,-0.13047359377883394,3.5766289226074752,-0.425815301896246,-0.020675760731999712,0.10816683192576951
-6.055969993249034,-1.5634240129370602,4.137623402927168,1.187268353300647,-3.358032280901593,0.12307836239621395,1.3315587079921372,0.37495018201850966,0.45352633895768535,-0.10499609810098004
4.618801259426701,0.41242862935490265,-1.098101089922575,-0.5032638263712692,-0.9309209951487158,0.6077241023198967,4.615682334809201,-0.1058067848692467,0.21305405156478116,1.0082248869960753
-0.5790551611216754,-1.0086417481945675,-3.307520720750381,0.9840571209737856,3.9761036686043143,-1.5788876805835002,-5.444020756642963,0.4835199843842838,-0.2805963862639583,0.13063946507259905
1.1860868167810343,-1.4153070232292069,4.077782232131647,-0.7586613043037023,-4.472968521882448,1.683881889949801,-4.200921562444906,0.35282197874801924,0.5739716421321893,0.45720329557536615
-2.7039157658355295,-1.3855464192317655,-4.829444800363142,-1.9154079346542399,-5.584233660896893,-1.3014341162565892,-5.609522926202677,-0.15218972184636215,-0.3608696912818283,0.23421211494264327
1.1447663303537983,0.7228581071980256,-1.3360014621897252,-0.7280356121918024,0.05684953699921014,1.5000197689384343,4.410213232886908,-0.07729463632425723,-0.47388081079311156,0.8601329086609365
-5.733953221119333,-1.2740063616139037,-3.306484418928786,-1.0024496966711527,0.8946821058892249,-0.3349502971872309,-5.66136825370942,0.4532967944941382,0.25752746207016103,0.6377493044531536
-1.5874064209477812,0.0950117948705489,-5.003000899529328,1.3338342151542388,-5.6273589571982905,1.6993674760722484,-5.035138941756764,-0.38542120786803064,0.01832511636736632,0.5446703844943561
4.3153013920677745,1.6106125757104683,6.023407748167604,1.2081035210943742,3.5102379120878906,0.5699331039821907,3.504194213501301,0.29314266900685476,0.41201475714751534,-0.16392151428825374
-4.590024262330873,0.1442721437905492,0.1786392495916056,1.4302885764902302,-0.46723996814544044,-0.4596420155985861,1.7529146867381025,0.15320814092337956,-0.3422747477427642,0.6402636259659965
-2.9332207321893735,-1.4409263561841725,-0.2778614382617528,-0.33244252562045995,-3.3589215469573466,-0.529952759539488,-1.6781108301823329,-0.7881359566146177,-0.19934447676920056,0.2705375637873642
-2.1666557109784295,-0.4821436810922841,2.332936418926674,-0.8124941017148588,5.637655559544675,1.6653920781527116,-0.23976502055101356,-0.09940459518375855,-0.2660932752291493,0.9229656128600984
-2.1557832651411086,0.14173915932001258,4.377919738996725,0.6103493622404081,3.823161359015292,0.13088910426296074,1.6694454236013163,0.2388674940952116,-0.21113051561122664,0.9114870051213877
-2.6607654858682808,0.9395726492411631,-3.7377983103409775,0.7791925152739929,4.530631498173229,-1.4715886507938243,1.4366095412065123,0.1903830418843344,0.15225376714260835,0.7806440743319782
-5.085597402232022,0.9028625130857075,-5.218765171576586,1.7437592908025041,-4.554156398725205,1.8355209836363215,3.779105251628814,0.2329448940757196,-0.3439704898535021,0.3949832065706715
1.176645976097408,1.1304964185181876,3.706642377627559,1.7841082512693212,-3.097505075779809,0.3603035814332367,-5.086182078591121,-0.2155213851552436,0.044013246461542054,0.6663928537963317
1.4590411923029638,-1.3148347836288448,0.8157796800938701,0.2897220561353988,-0.42722647855578444,0.09052710205249115,3.314877778482745,0.20102438008884096,0.7592923105145127,0.4185370307999188
3.7585136393915564,-0.031387137698283496,1.2508936255240108,1.7249449427604073,-4.776146128425898,-1.531585736399558,-5.178374810400749,-0.029612280423887707,0.21961523008660633,0.5168858679399961
1.9827628601090295,-0.3255667968384821,3.445476986741551,0.6849256532343704,-2.0895097553973283,1.593466189446143,3.297403767207393,-0.19637467932626418,0.4885631952721691,0.7473372299312996
-2.882081142168193,-0.543231928911784,-2.330633848634458,-1.3695534055000014,-4.423840840870073,1.7445098535029762,-0.7799252927836591,-0.09541930160152061,0.14995520500894455,0.7657789683116167
-1.4655030259157327,0.9187428347095117,0.6655928995764233,1.744559947353849,3.5205867635019663,-0.08252174350183861,-1.5529250130808228,-0.2857015217904111,0.2734556424730017,0.15467240329214957
6.1120922042494845,0.8710409440145739,5.667004929648244,-1.5260856911318346,4.4027030106362295,0.5482955359648303,-4.7486637201109865,-0.149397345564134,-0.22218458974111402,0.8357455137169103
1.1085204796134116,0.7443854604217952,-6.125478265239148,-0.18272815263301379,4.087017860625793,-0.8185638986236405,-0.5206360926101983,-0.13397255864634905,-0.5048459564309085,0.7710518237550421
-0.7245345640272616,-0.7922904342300336,5.2556302076753605,1.1251761417260635,-4.891009557888852,1.9881386313502922,4.76275230530528,0.2883700044493535,0.03805048015143273,0.677332655620598
-2.714110020427671,1.347586318643753,-4.943370679695431,1.9964189218969546,2.081000285498104,0.6005000622351879,-5.144064469079293,0.010568208528952183,0.39983771497101617,0.22880624592307058
4.9867394901416136,-1.8840019871821223,-3.2551995910031932,-1.42791249933346,3.4762053350942645,-1.2071830911484085,5.157616132763919,0.24396986334460943,-0.6129134127178684,0.18915529770950446
1.962739133953277,-1.8553491580212151,-6.211801283343522,-1.7933683319424043,1.3304202312554594,1.2059272434376611,-3.283776572920001,-0.05433091552472685,0.24899926823685933,-0.3747421251520592
4.388575067113796,-1.7710722393869585,3.780106001739454,1.7111817206891216,3.4176814927510195,0.7924831359145488,4.245031546311611,0.15595554182706214,-0.29499843383516594,-0.26055903002658154
-5.775699677688846,-1.1928715571237785,-4.710958587921123,0.018123960771946113,3.079562891810288,0.5200473783055948,4.410206613009904,0.738397352583287,0.32742232867235094,0.449322172857547
-4.330524814939899,0.9384843677406463,-3.8553988746865646,-0.916964994728799,2.6364029978531773,1.9208191395947272,1.400987691071994,-0.015045545366749472,-0.5822754999441924,0.4510587035700221
-5.595476043709327,0.46523587971013125,-5.748077072153102,1.5365828454672688,2.6323032608637957,-1.307488614309987,-5.127984166848073,-0.17091855820775473,-0.2649544389389344,0.33181088495277433
-3.9748226452631936,1.92010871821677,-0.5204783307213683,1.1363237933656318,1.7132887768736778,0.2896525998345494,-4.457164001406976,0.0971806574084918,-0.4504681605336371,-0.24671134170483458
5.602067136689674,-0.7946294699411283,0.9798962305427299,0.7991037783562644,1.8743684298810797,1.7623776387820738,-4.4156062866040715,0.17207204052919756,-0.5080812521214855,0.6390385012558198
0.10491039489359277,-0.3838624370369361,-0.3244407576983166,-1.5231298952090215,-4.595771699998068,-0.8876978168749705,-2.4529101767639587,0.5663656437719858,0.06820699303436217,0.5137199419473633
-0.9055356361622442,0.4439501881465131,1.6909417147733832,-0.35275641365771904,-1.1456841455755642,-1.129485893212152,1.1091264800171432,-0.013571690858572877,0.18260284174458713,0.8999088184871983
-2.297966153855492,-1.8557606628905452,-1.0248954453898333,-0.10346929963931872,-3.44655357535511,0.2898317324884627,0.8260950694249267,-0.49713253873913216,-0.6249763703618809,-0.08347584820396117
2.537147394746264,0.5917939288048402,1.914559189904156,-0.7351433927038276,3.610148708143581,0.19657753439871772,-0.8613874685405802,0.24008064810624818,-0.414638580642065,0.8625722136847617
1.582716760619677,-0.5573706621989829,0.16000491226088354,0.9468227539288812,4.853220257249769,1.6842287891807666,0.04562954029972577,-0.05545123091306388,0.049774293086333535,0.8208962723518527
0.2546554411415478,1.1994816430553459,-2.330499311692832,1.3495294493802743,-0.0735809197411621,-1.5365731026589264,-5.374937112763828,-0.4230637140821833,0.07400024992894821,0.5919091515611938
4.295434730655656,-1.7777283323724884,-2.755520362161282,-0.6634798379938167,-4.107189768393582,-0.7444265207920431,3.048218638067076,-0.42109692035814966,-0.6310657133819119,0.04482996718780635
-6.095583484885512,1.3086936980827457,4.478243176096451,-0.5109537072338073,-4.350621987798427,0.40336163178032347,-4.776912698336927,-0.7389037254592493,-0.29119775451966295,0.4539086576792685
-1.6966128248571488,1.8337167236038896,6.2230337756504825,1.0884195654183424,-2.3743234353951763,0.75066019666437,2.5799039504792,0.10095038995578666,0.4533737939883728,-0.2692284699132086
-1.4087083087445595,0.5635545383446376,-6.145260779105507,-1.1637693655910342,0.31510908526880055,-1.3449947829668165,-4.196209739470738,0.07533200855251407,-0.010096884482902746,0.7788186609939279
4.223981889310989,1.956532010734422,0.7029760160373115,1.3562789235268538,6.158440103937983,-1.4336164457249012,-0.6500350975253504,0.05043004165650236,0.460662742942619,-0.09992542385001185
-1.3492866890254867,-1.67980286541526,3.206946970301991,-0.26488389070962803,-0.38525370656855973,-1.3973081047470393,-4.007561247980297,0.17971113013762297,-0.6363234272880852,0.1750414013969675
5.113221494282061,-1.8214036441028845,-3.3553753011070495,-0.8317626787418866,-0.12311886743607481,0.3457806920591837,-0.08427790331562779,0.35587402482692077,-0.6771206547925215,0.22704875663497082
-5.223511397965562,-1.0253301837771458,4.3154701126175175,0.5503548019138362,1.8733120696864853,0.6808130214054198,3.3020619191364853,0.12318533782452144,0.7528332980145396,0.4547145759746879
-5.550157469578622,-0.5335664602695505,0.4964645868866846,-0.6461740668106959,4.326654648487064,-0.06970996565082421,3.3739625236098023,0.4392972753856886,0.43416343396797236,0.75557751562815
4.421314892027483,0.01916593161399227,5.143976183024155,0.34849576214792233,4.3994451933515455,-0.6376368176339029,-0.014859000844545278,0.1839873245621051,0.08530369142073571,0.9108072250364231
0.3945226750174955,-1.5800811364157177,-1.2741805158286494,1.6693506902067043,1.6432529389811643,-1.28997367025213,-2.0239732167433617,0.1710966916372743,0.39099525733880575,0.09979548261304932
-3.8734661986364904,-1.9007074728057098,5.368903358810576,-0.20717068697251406,-2.4173594903949263,0.3939087662309464,-6.188130428959724,-0.5686172018459366,0.533652794154205,-0.13616890419419317
-2.7880423410937785,0.8121338627955703,1.6801483497499428,1.927223790170142,1.511692833305033,-0.08997650548906888,3.283592993591136,-0.007343650176611309,0.3891109374115826,0.3705994731843014
5.065798071868506,0.8827837868734063,5.817932967780208,1.1280206829527089,4.607026064569797,-1.5435837152654512,2.9191135976019735,-0.1465942868379657,0.46218528694880223,0.31860427986990786
-0.7524859339362502,0.21241520964510086,1.9355262630984003,1.8792604668222777,6.086300702781206,-0.8470870180483789,2.935943927820227,-0.1158492294211357,-0.30803954603178296,0.5925163124003219
3.139793236466974,-0.6140285547478048,-4.7241956277053845,-1.836212158857121,3.4834296817664834,-0.04120103273237641,6.098384528856273,-0.3193695589415172,-0.4300733784201867,0.4929135155717998
-0.4399333902077176,1.911667916295361,-1.1106054124426077,1.1747286022398904,-5.2146699397633896,0.22184684055105564,3.7938709245406956,-0.26199221828161484,0.5457317439364098,-0.061798391975073384
5.334252940281801,1.2903323624697265,-5.815647666353252,-0.5091906347730633,-5.6683471877380285,-1.562870835541768,2.201838696063601,-0.224320708325894,0.5150958522406842,0.5281020750573391
2.6785229456749287,1.0948827310065052,4.590134243579125,0.9577258739060395,3.7789471968592983,-1.804145160706883,-3.33423851045729,0.20320288278119497,-0.40167191599107044,0.43689640374676547
1.5310360335930868,1.4325012184992927,-6.223478430757882,0.05851736846539923,2.2267297360168294,-1.8815708434855472,-1.2389741971294477,-0.0818325254038564,-0.6240768489617401,0.22047904419347086
4.969174110179233,0.6864512354234349,-3.295010956190898,1.4111245185276506,-1.9087253219765001,1.4133786845762377,-2.525267741946547,-0.12754996527594115,-0.09278272442510758,0.8132698875399801
1.1344223510923515,-0.4122397290086637,-2.828197362516358,1.5462302486874768,-3.923823354839989,-1.6607536350569476,-1.9853976518665055,0.1630275526896309,0.3702429131714162,0.3293904507908042
2.733547694378088,1.2297264239051269,6.2642167280385666,-0.8145517719553403,-1.1562490937910956,-1.4527148878814948,0.9403914360653021,0.49129434953344975,-0.09772465655938813,0.6288801087377531
6.249605268022241,0.803524040482634,1.195873275591949,-0.430523628312824,5.216152429186569,-0.012333615478602233,-4.592351568787947,-0.45717305064853836,0.12669483801141956,0.8760226278199098
-1.6908465022188839,-1.7313333246089324,-3.7431432866289036,-1.9293248760003512,-0.5868042487579475,0.5381610598071886,-1.9682466725209187,0.19535103486131594,-0.38951772044262734,0.4326741318620533
-1.0000049498937198,1.8368370913783036,3.164656806980939,0.16342654777980492,-2.706166608595475,1.5879871950919808,-3.327180211978917,-0.4563207956802688,0.6291895933832308,0.08723146065722077
-2.193695304710536,1.636259257691794,0.37104821438050894,0.9692717976719067,1.1397546146969022,0.6137568360379806,-2.519745858573791,0.21159039206141386,0.5562416374146318,-0.13708413152637655
-3.248366905969114,-0.710030611325339,-4.327653955112214,1.4972574611632297,-2.7224185183785674,0.24595757765753845,3.667198779775659,-0.36321972349354775,0.4368754288107314,0.3068338886113897
3.564830813758962,-0.24645496566322844,-0.29820820415072546,1.9788069957400993,2.192944310856542,1.2585537724715308,5.056077853393552,0.22870056000942196,0.05656017625777125,0.501109785803636
3.6121283430405002,-1.2592826201857297,0.7808644157439071,-1.5924233707418205,1.92070190964382,1.821397712751244,0.15991472760939818,-0.39405913952584837,-0.38366144885289216,-0.035797589913460985
-0.8418654895808446,-1.8566289943273473,5.7747680004550075,-1.5879892634793649,-5.764046588091123,-1.0157335539802461,-5.456937749985117,0.08910171849880788,-0.2503436517772655,-0.2560161814976615
-0.563719899308265,0.0643512050284496,-2.354121440200986,-1.7961580697004558,-4.878299374789712,-0.46198248804028763,-5.519762657618706,-0.3121885905659624,-0.2027155824894084,0.5636255071308087
2.4892629536605133,-1.171917833900752,-2.4859810960775004,-0.42349689128761003,-1.0473830086515026,-1.9933571693007979,-4.87239614025636,-0.45177502261322133,0.3299487134972227,0.4579062118652528
4.556322920585429,-1.9950677499523675,0.10258198900971127,-0.04199197397116761,-2.096337337706389,-0.27469191941420146,3.524099087333899,-0.19834299305014083,-0.7228195807903984,-0.11618990854385373
4.2855185500598525,-0.9586058263389998,-2.2295200614453137,-1.030068587886669,-0.2529156890786215,0.7330334306352517,-3.413143884179438,-0.44417724076225096,-0.35427018355747336,0.7099103640611073
-2.125959079790875,1.721538470356602,-5.669969719522207,-0.1569215790417351,2.6571690024555297,-1.3981839537701037,-5.684982308731148,0.3377665597458884,0.5951589507408105,0.030463607216986946
-4.544140532220053,1.6752927741227315,-6.16369714032669,-1.2467121007545927,-5.887079077955344,-1.557482129751187,1.5090750400514015,0.012651752485148951,-0.493529481797251,0.4574899419908551
-3.245015306237083,0.2768482017227072,1.1328540075425444,1.3977413323591161,-6.220448105026864,1.413477837369467,1.4961357255227936,0.22321921159968303,0.35023817611343705,0.4795163419709116
-4.235941814521732,1.091749552541136,4.4649737648897565,-0.9829460649833708,5.260048632137672,-0.18217027880536873,1.2990111464265182,0.5448470707117442,-0.41196468196274555,0.4317205057248246
6.087198142237605,-0.5538556854432026,3.933281383500618,-0.7264035286861614,3.7581218393531275,0.40293567545056996,-3.562572467968958,0.28849392632119003,-0.21725316267144312,0.9186651777602564
-1.0798322620071907,-0.7294574625457533,-5.29895858291063,-1.88066091960121,-1.9282280880858078,-1.9238634087300537,-4.201473764772906,0.36267768538622036,-0.34851376563997544,0.3512100331061214
2.8283025098869112,0.8323649427343516,2.996569653904726,-0.731387315480085,4.898644381398255,0.37532219211379036,-4.6971091476623705,0.6360445721795086,-0.2603797657770696,0.5925586379067039
-4.474893612118492,0.772381707718806,-4.1078241582874995,0.02917080632817326,6.176687417664607,-1.983969581066642,-6.071757688166685,0.08571701355206364,-0.3742022523643552,0.6957982412259066
6.193142349047162,0.33855533653666203,-4.686010707487475,1.5892087990163746,4.777576569603814,0.14480165244550092,1.5297078950511018,-0.03733086719695719,-0.41837115843652095,0.5607345859730877
-2.8487688747489934,-1.7979212145119794,1.1877691676692566,-0.820979227188948,2.0550803460540203,1.344980707370405,-6.051903568435588,-0.5322125310774071,-0.39206146231535055,-0.189396118705977
1.2021650100527363,-1.074877841252591,4.696039533671747,-0.9853419737526861,1.3912728734368534,0.21416336035844585,-1.3041487592558338,0.5372987739736715,0.4953170683290532,0.4461846396740465
2.2309167908134127,0.9030785388617355,0.8407387092114984,1.0336889487390164,6.071718474471296,-0.3229104483967795,0.18316313168226817,0.5556482616829268,-0.3018707916706559,0.4825635473107912
-6.123378333058362,1.1841142252415136,0.25408964209768303,-0.3681542785577392,-5.098456143597189,1.558625686701589,-1.3187090650906113,-0.6661706536732227,-0.19281384397127116,0.6146685442618325
2.293224873507808,-1.402503374527397,5.797063347035368,-1.2862329527126763,-3.773752569182401,1.4359314422308551,5.182039266422655,-0.20246457387411956,0.568143740920661,-0.077187908648356
-3.6154285615073345,-0.12079644730068839,2.932696001309142,1.5134629352432065,-1.5190981503314465,0.06807794739771689,3.03595811612787,-0.45494839439742935,0.2737025121353321,0.5102554134617313
2.90306786675911,1.1318405201043396,0.8783687621375709,-1.5815396127808992,5.073904533428183,1.4622901572841127,3.7441037938782626,0.26288203410646815,-0.42671941539061853,0.6306808695316272
-5.025727286861238,-1.1824105316742832,3.059620585752108,-1.9074396216722143,6.019061399363433,-0.49142127857727713,2.754565423156744,-0.011382464790066993,0.14221234249198478,0.5496664161917925
4.867892871409825,-0.42148044739967094,-2.2716959431881945,0.4349645155929869,1.0172265342755171,-0.3634400895008114,1.2782909336984183,0.1650440547395098,-0.508201800481211,0.7898585122554151
5.468390001755174,-0.1294389734936141,-3.8089182097720706,-0.49117606846798445,-1.3300162986304302,-1.4755652278951206,-4.23433395303479,0.20126200671268957,-0.010942850279096902,0.8442889582133632
2.3180996418245856,-0.6420889831643892,5.713523801708944,-1.0256130185655703,-5.037508215883432,1.0140182520010317,4.785812812088447,-0.28919336694250897,0.6277934150764902,0.5792487912324011
-2.7868962376941124,-1.1916475934180881,-3.9467773460191453,0.08804920546604933,-0.3966869859405566,-0.9622406405818631,-5.712625650612805,-0.6533977595989603,-0.2899979505024905,0.39137834522341536
-0.2324687655019142,1.8373293905424335,1.9156411614534496,-0.017973773485526312,-4.889707550188022,-0.9902548378016509,-2.5776391933437433,-0.6923318093141811,0.08588549610106642,-0.024561694864255953
3.3259326207468627,1.5068431890584773,5.044621680794466,1.9382744330030164,6.058525539792927,1.8119965310719257,-5.377913915283773,0.16353385605989618,-0.2244559818032543,0.21360620399233396
-4.549313188746767,-0.7821338940958684,0.6644020710496363,-1.6120884451780828,4.343209789994909,0.46702471630923625,0.5320968929156944,-0.35873928997674603,0.5636588209593043,0.23720193923536695
-4.203689778506823,-0.9869781023992106,-4.266480966222839,1.4077326311791944,1.0579019223689006,0.9405177100785336,-2.561827241850077,0.0858852049951418,0.6030278732597403,0.17391031626422143
-1.6170668781712392,-0.38058014229386483,3.2657880451050785,1.0894119506982722,-3.682422094423762,1.766155426952396,-4.764568961707299,0.06951743452051169,-0.550922449043168,0.6282617785299697
4.9752933552407965,-1.5984174174007628,-2.957379971939533,1.385914144271828,-4.025579571333141,-0.3457282747601207,-0.6297671927017747,0.09414094242345157,-0.3338883942563554,-0.28546741803503767
-3.1995472988284868,0.8409808053439463,4.412763196491681,1.4983005594222871,-2.0181138495487945,0.12340157715125777,-3.1600155674474175,0.13989418171737825,-0.4288692078457202,0.549455673126842
-3.2053559405301737,-1.3549837485923035,5.526638775742385,1.5519553144223197,3.483625439395815,0.07064608515091608,-0.11796458117088893,-0.2593457573175684,-0.26023067115786735,0.5123873656690369
0.37360556725217453,0.1462720543083571,-0.821887656197009,-1.4729806684317301,-4.701662007971188,1.8089988633827332,-0.22569365959543664,0.24178520641545947,-0.2542468903911947,0.731963341080231
5.692261392809173,-1.34569248915956,0.683471893621566,-1.169130986593843,-3.1000013470498846,-1.8797816849552849,-4.785946417102946,0.5944163195595596,-0.2909623766532038,0.16515064581861816
5.235615999822699,-0.7138680340706731,1.3581029016472703,-0.13994347204290802,-1.2503323597193043,0.1275443653842725,-3.928278855631311,0.3140111187038542,-0.5455139440954025,0.7590693500299408
6.1368649654058816,1.2732314748154518,3.034679787107833,-0.12496281194419012,-4.359863346093221,1.6826634330942714,-1.9921784336855008,-0.6945816128575413,0.20905849784638675,0.4808166254943725
-5.650659977406512,-0.6303852927574853,3.6983803030283076,0.49083497995283265,3.1505326243954377,1.1745415354495097,-3.6178500848283854,0.4541597861373445,0.45252590557865535,0.6932541158611086
5.322718450130343,-0.24804158831850964,1.746011434757908,-1.990764909653032,6.196708340044396,-0.8764144561433795,-5.500487381855651,0.274146351223888,0.0929809787649448,0.41267091217722496
-0.5242287583013852,-1.483879771271833,-4.366776520420849,0.5291312521208407,-1.34483196187787,1.6874098006199802,-2.2713944277226403,0.4443977424716257,-0.5798109633571304,0.20823480650759135
2.8408224125017982,-0.15560227938036952,2.0089883421837422,0.39878142686396156,-0.3418333021469824,1.8002443784977484,-1.9755166469977548,-0.1598040468821838,0.3458538844849066,0.8279281160586389
-4.053922104309137,0.7123762435193131,4.345854970027335,-1.838985040240305,-0.632613433411132,1.5699507587493051,3.135209853671216,0.5017208292934517,-0.00721571914437886,0.5327423851861737
6.177104919210211,0.12565524638897507,2.0095462281424608,-0.7900788754482875,5.621047131804864,-0.5346580457738548,2.995694551344056,-0.04616986740300111,0.28315948151497206,0.8531556763563669
-1.2165590362643313,0.2472757202519973,2.760468639870621,0.03573660700541703,5.1130042659834265,-0.3227960482887591,1.8472217846801646,0.03511034136405525,0.08043464468412408,1.0083320608354567
-1.9799278377513208,-0.36737332707594783,-0.7529706405865824,-1.496771926750859,-5.127950591018876,0.6699596925870317,1.953302793588736,-0.4844681174705612,-0.35966383472399643,0.5494876135522065
2.046146010478796,-1.9209342186292333,-2.178571656042444,-1.2087606109632123,3.4935818671527956,1.4425216055845205,-3.1816944620395895,0.04217154239481555,0.6181757557223752,0.1312741904157513
2.108185435130708,-1.4825487861669022,-2.8240842784424807,-1.445382015066322,-2.7189791715136815,0.6989461893971116,5.153705991926771,-0.12451669785747209,0.4815476715736635,0.5747256219335473
-3.7363185564722246,0.16831613980287674,2.5294722316175102,1.8116898739422629,1.3823596650629035,-0.9795722758904772,1.5760056508390399,-0.006230528773362859,0.3289779210354035,0.5291790098552158
-2.2546310093241173,1.904513562766831,-1.260067742344721,0.7417108830440569,-5.988261565724714,-0.39975421546097856,4.711351623330747,0.611251843084628,0.3761358338350502,-0.015376448548610502
1.3844567020815681,-0.22422845441609462,5.475374992912717,1.4159375045889164,-2.2329711367838954,0.17819360816535834,-0.1278073434786684,-0.31623190301750853,-0.10800665286876907,0.634100371458827
1.6604634014426711,-0.6635549321649776,-3.2127851903804436,1.6506873410221443,5.323863713701239,1.373291543047916,6.00624765040289,0.055697868480716076,0.5131005528808794,0.13686222603148124
3.0770935637928885,1.0586689142479986,3.298131555050767,-0.07756947623077393,-0.5469604369007479,-1.0390948954039874,1.818929081152688,0.6239746548209736,-0.09282009874141472,0.5461190614497677
-2.646139090554678,-0.9687663611905823,1.079674858646448,-0.3600704470998273,-3.5311609935394195,1.2642240670113245,4.528758186337362,-0.5904699514411824,-0.45345742464076494,0.5066535446684703
-4.173694032847071,-1.9699718688000005,-2.0582075952710666,1.1900433427230102,4.260023759903116,-1.446683719535803,3.445658918859123,-0.4260152197001091,0.127079275250554,-0.05830005673854535
-4.826755658593566,-0.4397496393738831,6.2625355085496635,-1.2296367070763607,-4.346217402825012,-0.308798669812826,1.50303668618146,-0.0033155353264080964,0.6388317858442953,0.6004766487061973
5.437233827110462,1.923284582132137,-5.4053136044120835,-1.4480099306083787,3.651668952133684,-0.9174713909165582,4.833704187399889,-0.30769124324492947,0.6425828141228429,0.27143346854377326
2.0529729107973305,-1.5526207904772913,4.1765678186455295,-1.2945744799676966,-0.960897842823548,0.20873971423731996,0.009622832448295426,0.026783718905474624,0.6517912605910026,0.37406246405547355
2.338206220126289,0.6107469394770209,6.180047589432369,1.9976876368967513,0.20673009710364987,-1.619203652156544,2.8617118350471022,0.19901103930713065,-0.27149724974623923,0.38181769102611324
5.986900822400361,-0.7266944494839187,-0.48721639388007265,-0.3008923007381763,-5.6341754187649675,0.6890577248937793,-1.8420785499400445,0.5999921257108928,-0.21883857694797282,0.7623471799428054
3.610546265371668,1.3284803011279442,4.034658679668939,-0.33333600784047945,-2.2413862310543022,0.9952831186682194,3.785451289064601,0.6484108530245956,0.4531187543542413,0.4258079117881166
-0.10980647332444082,1.5721240781452122,-4.472506777253308,1.5162751186358405,-5.073043873873171,-1.3858979117815444,0.42503056672094175,-0.42936524781556895,-0.24331174500924968,0.22508861654299156
-5.431967888846067,-1.7887715943995586,-6.273484573278739,-0.25473336122294743,3.4492759490304072,-1.8606465988803373,1.9123555372111438,0.44808051643181174,0.4717304489316655,0.0750298579361776
4.058479106747302,-1.3279966056885155,-4.435391490643163,1.4432038944821444,4.0584451009731906,0.15576706505674753,4.009150483932392,-0.5738332403640802,-0.08224321459066497,0.08037211888050023
-5.114983667548346,-0.42207392824498235,2.9867373046960433,-0.9701921627041465,3.1692511652854227,0.016714417563255424,3.143340808629808,0.006289841989988221,0.12651759893542774,0.965202207559426
-0.443623748511941,-0.5283826391127295,-3.5269834410283782,-1.16648263425994,3.1587245807767337,-1.524358607864158,-5.200061682606529,0.2631461945986059,-0.053875143023915766,0.8224322959201575
-4.065780455322045,-1.2986139541843125,4.0582317424546615,-0.4059735061031504,6.159279024447659,-1.4511549688375505,1.928460210712161,-0.2764819522232616,0.5442691544236821,0.40364335686694336
-0.6439573895522921,-0.42832729321170415,4.711057540119273,1.9023825833135986,4.683108522203685,-1.2307972838594678,-3.5067781096157886,0.19493722150632442,0.16701746415429478,0.45090606600735333
1.9602879214339959,-0.8436656734472332,2.9481476426040834,0.2656826032385786,0.6394141322394606,1.3141876993551431,2.6442916130880336,-0.29631154075693644,0.7068191214281032,0.47532641695421624
-5.946183271634016,-1.8021634514159373,1.2755741628475574,-0.05523169751089796,-3.012080728892028,-0.32537565074079344,3.2393536032847274,0.7775057162433228,0.1341069940045718,-0.021851045912736955
4.102240247303601,0.24489227156017668,-1.4397593204347867,-0.9172129540195719,0.2752959928618237,-0.741001525742476,0.80503492131312,-0.2373026536730944,0.17825746199896345,0.8000486669453223
2.2187539243210486,-1.7356831563224207,-6.266592639314295,-1.1508914446370282,4.95506441134789,0.5851630529142366,-4.120177979670993,-0.3533506240606798,0.4438960677435241,-0.33110095556736874
4.901715360504652,-0.12017623885064,-0.30028753611602177,1.7421677753706204,-5.532847146177249,-1.139286901485126,1.0772878439433136,0.13585951043380473,0.17786235159276634,0.6024996029747021
-3.8246894396500286,0.7181080368358312,-3.5910008459307945,-1.6033721176047426,-3.680266394911053,-0.30906386291175103,-4.067702962386116,0.37428763812137605,-0.4734187766220372,0.4005444316395946
-4.588268166962758,1.4411275448757634,-2.2558111228178133,-0.5569652539269856,-5.585803656664581,-0.5705215059917834,-2.9540218528409596,0.29065598207972376,-0.6765429950107786,0.2788196618978883
1.3876924458128643,-1.1784388093103733,4.877870090469277,1.7186664836782204,-5.026121921859516,-1.5703881748456912,-4.831499937325991,-0.18541804157492953,0.4027703406395169,0.21616618129523174
1.501789859257519,-1.5121241431615084,4.425921913204145,1.0170860597515698,4.016799259469583,0.10424210754408358,6.238265776680568,-0.36299862413713635,0.5832959447123313,0.08795366512700274
-5.725160707021335,-0.3949401432555466,-2.21135543814329,1.7945819948505641,0.9653736387297664,1.224763861778901,-4.140514607649004,0.07577324900525474,0.4402569833784298,0.3077441495786715
6.011644847389513,-0.005441812494739295,-0.07947872204068851,1.8835389141829513,-1.4980015431126583,-0.4098999017800282,1.0644939472300043,-0.29426915188270514,0.010470463798433404,0.4387684222190924
-4.671659211519796,-0.7156574943525804,-3.853303470089161,-1.5868660835718016,4.598776255517612,0.3573246645099042,-1.7750697384094352,-0.300443147310402,0.10907658296153092,0.7178039868011934
-1.1471126202740871,-0.2739239852505815,1.6723537277375504,1.7070775659559732,5.435712022891701,-0.43403208187734643,-2.1444635074520146,-0.2248305030398806,-0.3944318231358284,0.49745290373285805
-0.6148559576731962,0.27173692171397024,-0.47956703219116203,0.6350136392668038,0.6832517336498318,-0.7171378132236956,-1.9376210796213345,-0.12185281196952889,0.27081906557072316,0.8611397429278067
-1.52487458824978,-1.6214409270024452,-4.194253336880498,0.8924552085815445,-1.3929453032826746,-1.1418441097594254,0.7871654768202072,-0.14210087496558613,-0.5550268303626444,-0.12505666157190182
3.2095766534662458,-0.9703105506185143,4.10448091696223,1.7100194385001983,1.223275285167439,0.6757906359663184,-5.619645561542424,-0.36854090337307405,-0.37700508765284896,0.12066505479763395
5.595729831235146,-0.43006106294022484,5.3241890308506,0.3159100990009702,-6.221987886527805,-1.8458320027062571,2.2660601992142206,0.25903667294821314,-0.15494071859531652,0.7548166367875424
0.7871102537290797,-1.8938702511757026,3.057857112953159,1.4085813482767269,-0.044996420562288364,-0.13697023857098012,-6.211257753037079,0.24160797636133713,0.1998351663378775,-0.3927207699943457
3.6003203889196067,-0.6771357330155783,4.757271064468697,-0.5077576497677878,0.8173785575216614,-0.9186328472026899,-4.263010793933422,-0.5725942715436865,-0.09397657572686136,0.6348220299431292
3.45284326646948,-0.013638084614873591,0.45828832232826944,1.861663813926942,5.82256369751025,1.422568486809614,-3.9236272828711782,0.19934231846961756,0.1756928080322594,0.35918504525350514
1.1840650404278437,1.5125896986221496,-1.576732958201342,-1.5955753362576601,3.905694052133419,-0.07294579455131345,0.8087720653112829,0.18926383286127188,-0.6296192320731501,0.2456982058901604
6.055732361752125,0.42884572197628845,-0.9422589160337669,-0.5200625286112088,-1.0347016842651868,-1.526403667285325,3.702067013724702,-0.2387115930307997,-0.09840034423416721,0.8031837930688379
4.241723738829237,-0.8624114617063645,-2.464314472771102,1.4973370253392528,-5.97893233456888,0.08182977506891076,-0.4562330236003467,-0.04103915833005047,-0.634154698238026,0.17132809717585754
2.387992225905454,-1.346433199402182,2.1142341043871307,-0.4930639685004943,1.4910576138107041,-1.8396199605088963,-0.48070640336256254,-0.44772333529635433,0.4159916979832017,0.37654566595802136
0.2794712284185943,-1.1426943885800536,-4.526326903510244,-1.2461027879507944,-1.9575880595243484,-1.6127594027801142,5.618336634363833,0.5023240783662961,0.36663879791919285,0.33321773822403444
-1.1932745876125352,1.235878410026996,5.958679066247114,-1.6770588799890436,1.9049685172635256,1.485636346964856,1.6859844906221078,-0.2875313321004917,0.15467683524740056,0.7053805596657111
-0.8914319157508963,-0.2756945694482469,-5.829109991747572,0.13840300515710124,6.198900039642804,1.8348301038877364,-5.772585685742431,-0.03356409515143743,-0.10271688695653827,0.9339102588851991
2.584810365586372,-0.7929405332122768,5.061543766781077,-1.8195410171628859,5.474578721259172,1.3499029751511076,-4.804144958907325,-0.23025750822365293,0.5718567724555315,0.31658437645331194
-5.5286063232947225,1.3388306573077435,-4.323683652559283,0.13959261190348204,5.221755414956593,0.26979245419729336,-1.2907497335013298,-0.5012360566322511,-0.5966542408169085,0.5169688356841522
-0.6905983510338576,-1.747531317184516,5.887529156301681,-0.7573832596756689,-3.901594544588956,-0.8558107926384189,5.832527327836975,0.5644576636420051,-0.42832769661008,-0.13641732633797088
-5.0957671681906325,1.4692121620047254,2.610519313682185,1.3200767166361125,5.977273107020777,1.3686186220674874,5.568882332049832,0.09853348476777966,-0.38103018880307676,0.6436175460540855
-4.6856931747060475,1.1831542606678802,0.5736867176579601,0.1739823803194427,5.010454998585652,1.8872152745868451,2.5727693374223533,0.008780698173842527,-0.716715372357397,0.35478517379851704
-0.21429382823439447,-0.17438456839261862,-1.4275512972768363,-0.5536038817093494,-1.3626740684435417,-1.640987058995219,-5.307402769128896,0.06775878218290322,-0.12030478872180611,0.8334543757537471
3.515165239036235,-0.21570842831909554,5.409397176120433,0.4488840343758098,-5.838189663763688,-1.3699066347300821,-3.694903399756625,-0.14401190155925334,-0.1591115323341914,0.8458196152297711
5.975244466334137,-1.1251830953934605,0.19789129417792406,1.7447077265607844,5.993540687724329,-1.0545582584658217,-5.663082394499496,0.22374732585471077,-0.1714381941610129,0.5880628389256737
-4.3507609833257535,-1.7466860851897676,-3.8292395318802552,0.27427885881494163,5.180356881473261,0.14887553477736004,1.5824288321404545,-0.20156862358029284,0.7311519264400594,-0.14947214099688727
-3.744547319784164,1.2023344826954006,1.479428690830125,1.4565473167708993,5.637469423992649,-0.6083968969736309,-5.1423270247948825,0.5396654945628674,0.06731739345894766,0.4618218515789153
-3.442332288565212,-0.24863373729665117,5.597912266915384,-0.48676071050633896,3.400911563637048,0.16190676868302,-3.983921843386935,-0.3025430029618864,0.17181858064719033,0.9738208682031186
-2.2515794659446478,0.6127675400912747,2.1710386372422628,-0.26096101276381534,-3.40821123056384,0.8876271180507054,-4.1589545973443025,0.3461165282764943,0.3031075619617137,0.8890359890170474
5.48457132982599,-1.2483856838540932,-4.932156722823543,-0.009409190538484768,0.24554295225775746,0.03277165911297919,-0.795456333904176,0.5561428725515122,-0.5754824261869158,0.4143938127249371
6.21487505393988,-0.054877549317672525,-0.27699094590772244,-0.3129357491417548,-5.440668520949626,0.3718265245984642,-3.416724780876829,0.19165102254106736,-0.02272192853585278,1.0258024129804841
1.7283687916768669,-1.7966661522060914,6.046221991737702,-0.12397968394931125,4.983247467179171,-0.09775530706826085,-5.522244918707775,-0.05792590935152931,0.7890393025032029,-0.03620908912421195
4.047002138938216,0.5927349186685373,3.5388685175287504,-0.28732054596450674,1.7324855077378603,1.42491601518643,1.6461819624709069,0.3372180944303729,0.3278670328520102,0.8420813006201321
-1.9132191464610546,0.6501183774647994,2.158488608992685,1.8423478500265,-1.6213412414366353,-0.2996729299434753,3.9202643925094636,-0.27777388835009564,-0.033642750228826575,0.5937247729567516
0.07237467316882995,0.9462923724629322,-0.5060491264628837,-1.1380194327491981,3.0797602653294964,-1.4753793232611603,-3.7857891860467707,-0.4204423298588532,-0.10366545767343915,0.7674342040913893
1.5929217837696603,0.9890792007682792,4.9572798590597555,-0.9096540103364332,-4.889303311977038,1.8241866380905165,-4.340446014441891,0.2511686888510249,-0.565464369010781,0.5828802664481052
-3.7973027028817277,-0.8346821857661371,0.36915540657017054,1.531302264136312,3.272458045487128,0.8326302153705405,-4.079732067728594,0.03435871396615361,0.16169024743246235,0.7151815311925688
-1.7875061480337635,-0.0863802956532882,-4.428330024221042,-0.90628119149331,-2.4073349583522763,-1.490895206683843,0.6310105303677158,0.0914487527077975,-0.1863249443030624,0.8730937373917125
2.575154148343864,-1.7202734740925552,-0.23709384185483895,1.1288447810711801,3.1147560196427326,1.2602923848750165,-0.6500976473771756,-0.5756620806164796,0.2701523325321392,0.3875293676328094
4.026196957956651,-1.036987715142922,-1.7482193485960078,-1.2945776943287948,-0.40839418477713796,-0.431759910338227,-3.253955417836239,-0.5327625396238375,-0.08235259092547494,0.4827798389966828
3.1623657079386165,-0.7446129115534137,-2.8535776133683037,-1.4764386765980198,-0.7683994253675248,-0.7881414846507919,-1.6419331127574344,-0.07713570677841738,0.017676457627558723,0.7049198831218131
-3.315874381485859,1.0526219592796018,5.40084204277525,-0.00827258884444948,1.7960601971608563,1.4686891064268242,6.265300244910752,0.6985040401659368,-0.09242353046871923,0.5617948387558606
1.4257670482066915,1.559117866159475,5.132119576738863,1.1658059512304892,-0.49070172812173585,-1.6753839983044028,-6.0814822236719195,-0.248313382415395,-0.49415269905685355,0.1426927018257535
-0.28636004596646725,-0.022741865861529043,-1.163528408441068,0.2726694051654581,0.6551635535036038,1.3464521641307718,-4.915266783025984,-0.0035693093160268363,0.20465307496237095,0.9524509811376918
-3.4517685137143492,1.1720199158385216,4.368831052329102,1.9792968544834713,4.683774925821777,1.5595960282893242,-2.3317898405683954,0.0006763308637634247,-0.27577164189492975,0.5283195567012926
-1.2351298768422323,-0.9276595807177959,1.335120441300508,1.7552214168281535,-1.9513104654140818,0.22800712752580088,-2.5584766415042277,-0.31064083531113174,-0.3259983842295199,0.3515861202915834
-4.1473123294147936,-1.2192578807253773,-5.552206472601088,1.7971740920370296,-1.219832117144172,1.3364835680084326,2.2774981769825215,0.08435059221276016,0.20227937533987142,0.5222878754857408
-3.8694702126767675,-1.2981510136836487,3.918571810972444,-0.9411531575218506,5.190861907296816,-1.4397783812420375,2.2320201975481373,-0.33529273272011945,0.39699272109360184,0.5009394148439601
3.9497918829485306,-1.05897444633742,-2.8108355149855306,1.8580755445568067,-2.956654076852252,-0.2801718003998088,-0.8476041488758819,-0.13080162891000618,-0.31650169379790805,-0.05335627248852855
-3.1018835408831746,1.103164345748362,3.414427750958189,-0.48672794310485745,4.209179935974016,-1.1477002624039905,-6.225919457613957,0.6528639799170805,-0.06738609053977912,0.5358207415138362
0.8938620674201072,1.976311089809514,-5.79462746857433,-1.1680077051661577,0.23756790963777785,1.2397629457794825,-5.161632416257332,-0.590006948139803,-0.5262186427669375,0.24625418217486184
-1.315852748788287,0.9883032025195453,-1.6134173024160985,-1.244654318097444,-3.8245724078988634,-0.359804852340023,-0.25852154043800724,-0.4390728222644455,0.39611828165402835,0.6571286102205837
4.544389087769136,0.5690096742719741,2.391448548714698,1.931948686143628,-1.1072463898197693,-0.3865823870034868,5.317237914636203,-0.20591529924516205,-0.15185989675938563,0.6182023057393793
-3.1918026272164637,0.9192609852114666,3.197438616019771,-1.6088480102182277,-0.39901354448858495,-1.197750114713784,-3.9516865736007802,0.41719255292842805,-0.0512012348479856,0.23348435879298593
-0.45431893258627465,-0.8422811699677402,3.718519222180938,1.6304195655619296,3.8021708024218723,-0.935876509513339,-2.836872015271079,0.4294125222214529,0.0495541023824473,0.1390802209963362
-3.0806119225246094,-1.4598476157750557,5.574107503382613,-0.3918088073717225,-3.457900199703826,1.3866842020329742,-1.2661069986181515,-0.7814081827755005,0.08447697179562191,0.11051184284622811
-5.838932852462588,-1.3522337190014753,1.7489842748734956,1.1316210966868958,-3.6306640805817656,1.6695823570645687,4.408523827855185,0.6832860391315619,-0.004050879990324996,0.16122263297435055
4.375662271007177,-1.0893554128031435,-5.645267982555275,1.4696941579303346,-2.439149127043594,0.4756655246941035,3.265184059281169,-0.316819252014165,-0.11167570982602393,0.6289366222579429
-4.66863667310033,1.1233534180761917,5.507703924550987,0.9134998629856361,-0.73824227908419,1.5067125550068114,0.34486783371134067,-0.2927227036778521,-0.5605179379328042,0.2837145932943359
3.0743228533784324,1.2820237754344164,3.1318719429395143,-0.8485804958073841,-4.799880604622762,-1.0466458825517595,0.03610920847323662,0.6734029298366624,0.07344899724324308,0.25913856440539856
0.0662781440012834,0.3305773972581503,-1.3175209203984908,1.1475655258001107,5.18921110436093,-1.013099786082115,2.9707316143357128,-0.2942175921929653,0.23566509139032144,0.6655192415186675
2.235326467965762,0.09236199711725979,-3.9120602625405474,1.180929034330838,5.785466147498139,0.8873453289344537,5.24832155761922,0.054057039515924686,0.441190853646692,0.7063189987627855
6.081366927746877,-0.5917973030430472,1.736087824754791,-0.10426904944768811,6.11205706060217,-1.6247687039691003,-1.100571076426859,0.4260985544236456,-0.02348946685816082,0.6987554491963561
4.716770399262086,-0.8637947578939382,3.6146782040242416,-0.4688673488789772,6.028530461020387,1.53411934569483,-2.4954163077575515,-0.03028442588810878,-0.6589147918907109,0.6878534573561885
3.39362550603546,-0.6525738246669253,1.3359172731071212,0.6339230735731678,4.139718338116455,-1.9021966364719405,-3.5148168871271164,-0.4250523092230593,0.12455448700615121,0.566684960700237
2.661687700992549,0.2540929478781493,-0.055200217793642814,-1.7791601731680782,-1.90565490372411,1.4604009276425933,-5.891985966827436,-0.33760475221121033,0.09542076841648957,0.6645767532700799
-1.3007608838179605,1.7805931506830905,-5.640937974114617,0.9988230041785471,-3.044385540753622,1.4664353286146898,3.0906138157296246,-0.324926435211608,0.5236477719632863,-0.11280749474881582
4.844456945981038,-1.136300838274936,0.39303700052167834,1.117079774299203,-3.194011227983039,-1.0770147789311322,-5.9385924032703326,-0.0995703129006176,-0.245163971385499,0.6015651385529611
5.758952092331682,0.8400675202184935,1.7026380463679214,0.9759788907799636,0.39705825881471846,-0.09546471563835857,-0.6338750514885776,-0.5337523808903673,-0.08364439386921702,0.6878275079817263
1.7639165040217355,-1.1938600984304673,4.874017209386763,1.2470094848770605,-1.8894810401624547,0.3144371872500975,-4.508697112627816,-0.4953914427096743,0.3452215787002792,0.40092923345489756
5.932668874045992,1.611570750521134,5.299032681629957,-0.6713478091861935,-4.155668075271333,-1.1529113461347587,-5.149582528473672,-0.6908991960499856,0.2378299523953589,0.3672346602687015
-4.771410485926613,-1.7147818632606184,6.1521777492132115,-1.7037692665237056,-4.615271463250245,1.3090183823629458,1.0078171222913657,0.15701233449910248,0.3363184285172678,-0.3042879476664596
3.4466800893908145,0.52364803109062,4.800118883331588,0.5538701110589623,0.27789116686357573,0.8509987750451988,-0.6607470374911051,0.4122405598599128,-0.19367354581867274,0.8342368478434431
-1.9334383843165321,-0.1293901901991501,-4.148390839962078,1.1862869192107657,-3.0055605064205357,-1.3858738146518101,-3.1858158432026715,-0.3460888006225342,-0.17926889369888765,0.511360565334777
4.296401106259332,-0.6791948176090745,2.3367863609941066,1.425638522622957,-5.303526983421471,1.0600976207121717,-2.415721742279383,-0.4652890834647937,-0.38621583472124593,0.24003796441856695
-3.559223105848424,0.7556058098118887,5.147045581529416,-0.8199231651504184,0.864552595627047,-0.8406635446020339,0.6818269567239348,0.3043145286420082,0.07473619815782985,0.8323285984754231
1.5305871050185171,0.44134155516071916,1.5517424027128888,-1.4596808311299037,2.430868298009197,0.6990014255208932,2.293306815044052,-0.4257821399509199,-0.12028453889740959,0.6946182969963237
-5.349673857601848,-0.21264463034338954,-1.1425187415056346,-1.6531540654272034,-3.4870588256160575,-0.23614947280785303,3.0509032518175134,0.5058585421578786,0.07840622496093211,0.6531567706944796
-3.3025003130726303,1.318999640499646,0.5752264688876609,1.04168674073847,-0.3446968492890745,-0.0032230983111065648,1.5036755306082812,0.6756689349690591,0.10730357472697133,0.1318906864209676
5.375310838562753,-0.03274967434836018,0.35993867864013485,0.40798785411011806,2.983190124459436,-1.7125986580550627,0.19703422783596913,-0.14539183343999137,0.07190314684224787,0.7683089857187385
-0.23120963957209373,1.6867399369502816,-0.08155734971955564,-0.12671786122267603,5.805231855995857,-0.1976941455964738,-4.008091555154545,-0.8031838485413527,0.1469609261347963,0.2238626445557378
-3.5555334975592987,-1.6192498466521035,-6.272864296507658,-0.2722173559980723,3.381686821105661,0.9338657711993434,-5.876207457196202,-0.747732692687249,0.3147585958727027,-0.0004890122499079524
0.8789852691410536,-1.382867498346096,5.539918136644599,-1.3305400014232829,1.5905885742803685,-0.6950465513437729,1.7780102541122647,0.501596975613826,0.39036378687777507,-0.07058758891006078
-1.102032028411216,1.038572209225579,-3.3826701858821058,1.6231674116570405,0.0026331953757026128,1.0243725908514114,4.3926112039994125,-0.08413009085514864,-0.049566658702560745,0.7325077862720704
6.26528735359235,-1.104217337624167,-2.676631285643007,-0.998267653072447,-2.97833606807313,0.3297789661575097,6.198642890711787,0.5393919069952374,-0.14672175316424557,0.7153015652059429
6.1578927738849965,0.10709292544923077,1.7461817609243022,1.4398821748064239,5.437644238176024,-1.1845574906818244,0.35848411551720805,0.11834247291344313,-0.2865052741111163,0.6819005621651426
4.180433406548594,-0.7871916934616334,-0.7559984264453385,1.942484406048032,6.09218651081414,1.6244272430607265,3.7485112110404044,0.1782079837232562,-0.10164109141153405,0.370377220894751
-2.89972091092156,-0.7165997037312501,0.5938724855332262,0.24310949824804862,0.06911541112476094,0.5466811196652244,-1.151462835729661,-0.4850175470278272,-0.02145737908930883,0.8618941145116925
3.1296274158830935,-0.6658002940865786,-2.1266969183538116,-1.491096152432688,-3.9097746420367745,1.4020835156854305,-0.6746938274296541,-0.11507529465291182,0.29478422241134355,0.6645730274663592
-3.4179806008964078,1.0373644000895497,0.6780029402597547,-1.915375954306826,-2.3065000958508577,-1.2919943555146358,1.9577631339444777,0.16010391957429765,-0.1791640949068311,0.7420977415585968
-2.825610129684024,-1.7402128831602255,-5.590016535677274,0.32690919183485967,-6.007153396356634,1.3951684525443548,-4.328212182128619,-0.7615606042654047,-0.046566612536048796,0.20253541888851187
1.3384731700545984,-0.22124788795701722,-0.7177848933273046,-1.7128114305598166,3.802568262665429,1.5722099390130104,-6.14163065765409,0.2882494664490324,0.390728752548976,0.44791791456396773
-4.036731553244202,1.6156167551819154,0.6216397767687303,-1.3998416870071595,-3.732951915228965,0.6399449769484566,2.823699287420726,0.16251116377291805,-0.5784353632526547,0.582526725099668
1.2488007157639869,1.812593519650103,-0.07456113800808062,-0.7989123514298933,-0.28595465070399584,-0.5613348253335562,-3.46133638800594,-0.17409363587082793,-0.6847138556613995,0.38770474494137624
-5.702701588287841,-0.5911500257395033,2.655301407234364,-1.9262487884992248,-0.76391787413346,0.5760376057994736,1.3866756112292986,-0.1748781143740471,0.11957451036149222,0.6463914711332214
3.474704354762271,1.24207886263919,2.6590251107475114,-1.5888092154210023,-0.31371810330522987,0.41362382995043445,-3.195690552553288,0.5697654677573565,-0.01825500679698213,0.04871262674565392
-5.745549170356488,-1.1056387164958124,-0.5665263142380565,-0.3442787237815965,-4.06106271453085,1.2976621707339713,5.34662455933326,0.7173047588734107,0.2857386221938848,0.4362856195612835
-3.751065112697897,1.7182916622688866,-6.055666352759729,1.6998498908277817,5.676225603416204,-1.9517925479362992,3.3035223675159555,0.34283843821343785,-0.12980390796483635,0.012847556702244783
5.905731751477233,1.6236088752711133,5.912119624624435,0.2012940227905573,-5.298358883039524,1.3991567912201446,1.4296828929611856,-0.7051430191369247,0.27643677135095945,0.01806539406094776
1.4410935070049105,-0.3309855605652552,0.9023352251051309,-1.3856808836555419,3.0115115336708476,-1.6999307705938307,2.8860464340700274,-0.11807671747659387,0.3886413583527042,0.7193747616428501
4.383168988168166,-0.11012528974204727,0.12346939767653975,-0.751142908311687,5.896399811593381,0.9324978982381813,-1.6455037705476672,-0.07295653186856055,-0.3485448847589849,0.9583460917494641
-4.084419228913457,-1.1216816311916347,-0.45313608645777137,1.7702736012573514,2.9408781027571314,-1.1390250072834007,4.51608783574136,-0.15950086881813375,-0.008744456599395767,0.4146597690402188
-1.5298014309984058,1.4068887310100746,-3.2442530493569954,0.4746424477452704,5.358981330300902,-0.9684239634088234,2.423157977758337,0.05451649592627223,0.6567200548827686,0.5246849743669838
6.120646506661726,-1.397606851027986,-5.16966722879953,0.6967807697792647,-2.0129164962721786,-1.7150220905336355,-0.31016143938193164,0.475024970888777,-0.32761762517950915,0.2509507327901994
3.1873597363280846,-0.8595103983392449,-2.071811218535508,1.3827976025878885,0.25210321800429014,1.3709278752258882,-0.6733479786750092,-0.3927972268307081,-0.3901224570870863,0.23314665651238953
5.6893680291949,0.603178358870947,-4.824310251590227,1.5403719529072029,-0.13482920316517966,-1.43344412810838,-4.362211918951756,-0.33115727999658423,-0.09430166272316774,0.6110106996321203
2.3554262249799907,-1.8105099730820409,-2.6803823126825055,-1.4408496381205276,-0.7400674840069099,-0.3425849120225548,0.27476801969203013,-0.283487101068068,0.44849067200683523,0.3905980597500581
-2.7677677064722204,-1.8718256424872912,1.4366894980819334,-0.5051279884705946,1.9007675841749831,-1.5653321167829262,-6.106956417506728,-0.5928140391504341,-0.2835921849258114,0.02701792456923141
-3.161424246560723,-0.17381070802379117,-1.3304560044440512,1.2412102210938656,-1.5343591889381312,0.12176471841231562,1.1745558410739338,-0.012966856507975692,-0.39594422326820067,0.6930792830623003
-6.005797720928607,0.060533507384755936,-1.9489193819505966,-0.3148794892669815,-5.020390274899657,1.1312822625945809,5.556597390155043,-0.05588651283616225,-0.033808437067410074,1.0232181422583937
-6.000303612892224,0.40549105124539153,3.313881485141777,-0.8607696454004423,3.611698145882003,0.5294202030652051,5.3902826613246395,-0.4567029251352983,-0.1842380108354924,0.7942625905347911
6.041420430603387,-1.8306155440051808,-0.6915817215008015,0.1879511503128728,-4.436904990911885,-0.6548566782905532,6.12485194382116,0.7386255562534318,0.008316388904289186,-0.00042446986907988815
-6.0761454683385585,-0.18996827390246374,4.303742048780545,-0.7043949491228463,-0.25373080539527404,1.91218298315192,-0.31554693386515886,0.22032156246529794,-0.03830734083845838,0.9535484353332204
-4.635628319439972,-1.7931140333344358,5.594432149845754,-0.9367623468997373,0.05104266645075928,-1.6371929356401256,-0.9588916858844003,0.09826719176212734,0.46931697605349176,-0.1458478480230649
5.402125321781559,0.009651974523753548,5.917457506637239,-0.9646574510504013,0.0570882106814512,1.438123167237301,-0.6499504268049776,0.10259110295242599,-0.25794865779014264,0.9632922213556926
-2.769638587958419,1.4219014536715266,-1.3829882709600314,0.12289316424093633,5.985179954174229,-1.2540668209765444,-2.4944080027944677,0.6328646184156531,0.26741940543117015,0.33662153124234584
-5.8897658231228105,-0.43264916035978906,-3.7656961118541643,0.7201397416315656,-4.002602477900894,0.6992510096234787,-2.97074862194217,0.6185626249442914,0.06797895606237014,0.693964393218008
-1.8184640034377306,-0.60455739181441,2.722401982054934,-0.13396294744662773,-1.7420858304103009,1.4104908761577994,0.903699858053506,-0.19717918673421503,-0.43942204843104316,0.8435121948636608
-3.594284884748348,1.6003651125747305,-1.9763122818174743,-1.8440824898507184,-0.06782118688087113,-1.5042477822364888,-3.284861466930274,0.361093542647582,0.062115958510222224,0.15637763620324197
3.103712560953883,-1.4769927464947257,3.8552194578866876,1.7476291525238148,1.3380431811237852,0.8414367680913171,2.682647820437162,-0.3048369615287004,-0.28200249058197263,-0.1207301085153788
6.189667943316789,-0.6338469511935085,-4.234521716391657,0.07666893965728594,0.4176176114862553,-1.288350046815422,1.4206543025663922,0.4194566782212019,-0.04284864627401018,0.7514817495032119
-6.102593347531091,1.7106736098168862,-2.956947070564954,-1.8417591664392328,-4.920387015075796,-1.0390042068814331,-2.839738522308072,-0.2945767095401926,-0.2300334072358748,-0.06764639982400548
-5.867906406308528,-0.8825807512250834,-3.8566517896418646,-0.48551629026192566,-1.4422932188090272,-0.6439690375884837,-2.1612760228543575,0.4905308229469127,0.3946646159785977,0.6418084984206633
-5.152975151569885,-1.8991802114953513,-3.74144439003478,1.0265977096664614,6.164570655322094,1.7141047002293162,0.052995105554374256,0.33730026872654395,0.16717777033302497,-0.30543005450184196
0.3997076285708543,-0.7416737238566298,3.4406793492889625,1.0590267517305945,4.324060811235504,1.5820183087875375,-0.8245734422902853,0.6324440399846714,0.2724909487255034,0.3405639624621572
3.351957135426402,1.2255949151835144,-2.405747141428258,1.7169689760245999,-5.095070726845927,1.9770767166531313,3.392339420075401,0.22242246717731204,-0.2457636230384669,0.488929821882075
-5.10851742912645,0.6249185924200025,-5.850706598741053,1.0807477977767315,3.7582398960377352,0.40964101236579076,4.482166522472126,-0.052837395593252616,-0.595372910931996,0.4618416774680948
-5.0505860005013625,-0.8963046318367471,-1.0779303287960582,-1.830168188687607,-0.650405940106153,-0.9391461755497361,-1.347248248001983,0.3930140932660201,0.20409316427716243,0.2723538220448581
-0.9407109421766311,1.5176469339507404,-2.8845174101728537,1.5749725148650882,-0.9298046819506132,-0.688769117224056,0.03155133964943424,-0.08659192270462587,0.4197764269571083,0.6045977655384513
-1.033144323282734,-0.9705107477794157,0.03365231943860092,-1.392793067684675,-1.859759915631546,0.2631608774963623,-1.0875924504633767,0.35926413061950585,-0.6330745916468032,0.12503032316393448
4.068339254798004,-0.973112953859335,5.900331030117486,1.1388880834054054,5.87296840652825,1.3525462193212165,-4.495174691303369,0.03674803504517081,-0.26562115577899753,0.7026837198769791
0.332338738375773,-1.3200859152168571,3.9969355489983522,0.3366485967331836,-2.9710766116772636,1.7183958880286854,-4.833263170372886,0.7112009344514094,0.290836958617365,0.26474678567426885
0.8021117875997037,0.8841622186669018,-5.540862371104657,0.3914241328248145,3.967719266216462,-1.7298907423277865,0.15377171709923587,-0.1908281716755882,-0.47335836981730606,0.5336572645134564
-3.0325218424518257,0.6516978061476832,-4.789412269489708,1.7482057226820276,4.957790986337032,-1.2561023204971633,-2.2197804923742863,0.03937726449834192,0.28859825251515575,0.5536422770430902
1.1006952816422206,0.8722493465370018,-0.7202404495871573,-1.3748347121560998,-4.971857237835933,1.9990613476573755,-0.5607773546698,0.11703978163243417,-0.39403248035044797,0.7258090601907216
4.678998769305138,-0.07049598148354219,5.304811940137802,-1.6489624689137976,-4.84791895683804,1.7185287508968972,5.620512645762498,-0.36687309187374084,-0.19286705578563434,0.6490218691179278
-2.3271488598350367,-0.5793404520245127,-0.5972250504754397,-0.33535327973083673,-3.893032087547466,1.5935015357574982,-3.0984565351371147,-0.45797102019270336,-0.2889496686610028,0.7566487019770504
2.578221463039303,-1.7313772890601085,-5.793283276002926,0.6149218903076825,-2.02196082887985,0.6218375708800052,-5.099093700759491,-0.5648062417766814,0.5103664459635368,0.2833819898957013
5.650133331743244,0.9940578675723817,4.725916446804038,-1.4541177838219563,-2.258778230705561,-0.5266233431746237,0.46688846298484066,-0.608679396361173,0.007744970817176053,0.509014221341788
-2.5513318220268766,-1.7574770312423795,-1.646887537937368,-0.9818027414908714,-1.4328285792220212,-1.212161829519895,-2.9905815354669225,-0.6243332707460535,-0.1713953861854065,0.15445927952310795
1.5945213958292959,-0.4473846616877397,-1.9419845817911794,0.1356225308894916,3.4145683929997075,-0.4845281746081711,1.0992448265013577,-0.21815783044186354,0.4284581704749384,0.8343436012216245
5.855504974624293,0.0879204564722027,5.147057561060358,1.1746904970257077,-5.54249335847412,-0.2836045141229726,2.4908792028294675,0.07057586934789034,0.35764586474912446,0.7560411281668378
6.113101620349391,-0.1664948353539497,-5.114614696168153,0.24803669885147128,-4.6903587709230585,1.0060782411175735,0.09642308811992972,0.15242146160376185,-0.201905800503057,0.9786765976232344
2.806297986818719,1.4774473075140948,1.6195870955644809,0.44975731701272625,3.1974029107217694,1.3698200058106695,4.635315555639154,0.768259967618513,-0.11276094209626206,0.338754341548089
-5.822436742222986,0.22476118719115723,-3.563657468942754,1.4413835631271334,1.8638749261542165,-0.3191100838702474,-3.917410894795828,0.3778125887566464,-0.08276274973055248,0.648737680406391
-2.021863258446979,0.8151107781608982,-3.7132441121418167,-1.625668218646509,4.873641203338042,1.0568413983204672,-3.7705756709338547,0.3989515653382385,0.42361444265836945,0.2847019337159085
-2.6085670145193047,1.888280708523543,2.614797153694515,0.44208801685529897,-2.416186223072923,-0.803499423333911,-5.783583349250706,0.5888659984637491,0.4347797721213946,0.32815814555515255
2.8697322482882592,-1.8272990997724619,-6.218991837517375,0.9179803514439167,5.637854389793016,1.026012190909242,-0.35619920575780384,-0.6188748455999683,0.16245784963115367,0.37818179728973544
-0.17527166551543516,-0.2554543094035786,-2.202475541094209,0.08685685674336074,-0.8647439783075948,0.3926715201630988,5.000388211093747,0.32644123742397235,0.024712980494182912,0.9787029482000773
6.217318281587057,-1.6850268404683315,-1.4483755833735525,-1.2771752169327621,-1.857366847495297,-0.850107925806308,-4.087813626767539,0.5772316885548475,-0.34183201433385385,0.14363579094407544
3.316795230971409,-0.014845028683056594,5.265724512648355,-1.869630227011942,-5.438756155062206,-0.3869056682786236,-5.271716855725294,-0.3664874547575613,0.21516909705526166,0.49370761379193406
-2.980116269029691,1.9441189723064944,-3.6554673299932476,-1.2075290343516372,0.9249268000741058,-0.008006836827373132,1.0103050128677307,0.45605825067728856,-0.07079162697007324,-0.28064352433836104
-1.5482049057006533,1.3070494395797883,-4.539428273882667,-0.28642941663413746,2.3834088164577336,1.4729457611315988,-1.6381806241591237,0.1074570167617245,0.7192526358702012,0.5097832180045123
0.8508847246175346,-1.723440219970954,-4.140792253315428,-1.723447350135542,2.8621840035014356,-0.8477601251114373,2.810240844809482,0.15189545789089018,0.6028220064874602,0.27272742478625334
-5.446037615216472,1.4501912016333018,4.2142592882753105,-1.6442850277988694,-5.981618278897738,-1.7748447480720353,4.441594974722979,-0.09046883645868171,-0.41838755199380584,0.2246895308464162
-3.3321241775081893,0.19309327143275468,-0.9263728080584874,1.1821021049144083,-0.1394373335283774,0.002643362645078806,6.142994760118774,0.21577097439206305,-0.35114423345162343,0.7181283173288574
-4.394372767229331,1.3228157549837256,-5.630023195215207,-0.08940492170811698,4.852365388598776,0.6608558624164851,2.3262956192386293,0.2572249921941407,-0.7684786292579033,0.43807972266069084
-2.9727349348585417,-0.32570083455418297,-1.6757418424519255,0.08577284063197688,-0.47441719739552823,-0.6924065924920426,-2.443163508618104,-0.25320310010641783,-0.04323473032647362,0.9199383752363981
-3.129287680811666,-0.5398110124609663,-4.396735037148199,1.4884172080142952,1.2826195614278477,-1.4648542976245782,2.434873237665058,-0.24736912521616317,0.28024454953696054,0.5179560348937761
4.366690838054544,-1.0498573117909644,-4.388456535123965,-1.9655309714649918,-5.686535743962548,1.0490053932140464,6.119060330443674,0.2925076621772743,-0.4144916318018662,0.41108976210995146
-5.716303149697966,0.9922838363195705,-5.377411197037542,0.36853129961466724,3.216305547298668,-0.5631824109290493,-6.142659902850064,-0.411789455993182,-0.5404415589932978,0.48622499537388786
1.1955782626953493,1.9649785125601111,-3.0443251691484936,-1.2420348912511368,-4.7234907870158525,0.22102247960022448,1.2113504479650334,-0.09464554401916075,-0.4379685521075709,-0.3215072886354626
3.6709217148602535,1.0122930944820387,4.930321174626294,1.2230907933692055,-3.174325436522178,0.22350961950304438,-2.5445057937846354,0.5643043262416292,-0.1614879781823134,0.4206372630747063
-2.1378956328331293,1.7277774769199854,2.2846125676424434,1.8983616530044234,-1.043578538812569,0.1497502934159063,-0.16183032584974288,-0.07269037809252007,0.38364549776531987,0.5058169957028895
-4.93247455750199,-1.0531920218935866,0.3471126891922962,-1.730502779467975,5.4191618321196495,-1.5046252722265168,-3.7933618250036467,0.09664917543472007,0.46994392221208775,0.09229434767603176
3.3324345726692757,-1.6122618328427452,5.027492931169543,0.9028038828901424,-5.418122034712733,0.7673882451426115,1.6532544896717516,-0.5314555166555391,-0.4708656791651903,0.251336673975901
3.232308875213378,1.3127914099573434,2.742483073454827,0.3447051810838877,-2.2298607186128727,0.7890946473197165,5.739563102962591,0.7002330850284417,0.16014916674283197,0.6227722927210464
1.0992735634426607,0.6573794737370156,-0.7896717899705026,1.0244832389722975,6.250702447773267,-1.3584427037290556,-3.737789689432746,-0.32425699075231074,-0.317240217771848,0.6197871197342306
0.49533824882473176,-0.07449841095336707,0.8989164934043883,-1.8037038091029078,-1.2022877084895613,0.3319130482622432,1.0700033723903317,0.17658471689927166,0.46339327691277543,0.5393637605105494
1.9761145598107719,0.8808641160106552,1.7778328739611586,1.16097262155774,1.5669935716384709,0.150030650148818,1.333827146830905,0.5111293907794495,-0.14194175092219666,0.6131083776567963
-5.009011313578146,-0.9073738370979201,0.34414124506612787,1.4919488616068284,2.248887546977193,-1.6383676861124097,1.1589733775817193,0.04440155446953786,0.10653901672062038,0.5424163854823105
-3.494970875278037,0.9360662391548917,4.1126571075098655,0.3738250903598934,1.1475143784814739,-0.6456342271567439,-0.675099734213954,0.4039676273736047,-0.21888034995551364,0.8236529941150157
4.57320092392074,0.8932813238686261,0.24810596577978927,-0.5270704550065162,-5.647230487095758,-1.4279703946944595,-3.855603619385505,0.1523703727898023,0.3454666166812703,0.7482353534490264
-1.5903026966710456,1.7765745883050985,0.06472663942588319,-1.0606393469630757,-4.9517782734833835,-0.6467779015881439,3.965576782521274,0.1399071367194925,0.67435880479123,0.4168816424731935
-1.4652145147640203,1.090023224089654,3.801974500153599,-1.5567169212051835,1.3647664929924037,1.836384253484443,-1.229145779211363,-0.1772024674206793,0.5573371912240348,0.1908529116677531
-5.640142242122041,1.6932107610315144,4.818848496550387,0.08856578883600719,0.6562991915207608,-1.1530355888955004,4.012301489640644,-0.5792668320039716,-0.4290875791629548,0.2507638958064091
-0.017583517794892423,-1.864488819429774,2.2986678529994125,1.8019850792108243,4.134130158742624,-0.8912074391578408,-5.610236933237242,0.09978620639148801,-0.1523133770017518,-0.1789270651703403
5.530813741479547,1.7482508995188057,0.407136415593639,0.5692696466861404,-0.46974323747224833,-0.3209385316049653,-4.779727644735524,-0.6031870684226452,0.40609560333271005,-0.030753245303639314
-5.064783596584634,-1.0690714132952501,4.228207774866196,-1.41667079705728,-3.4326649319512335,0.1944562372888301,-3.5779519009368737,0.4958565866865753,0.29764617520018977,0.5762580871751241
-4.230124039944594,0.25326496679184896,-1.6567485162825095,0.5046371433618768,5.177299075532974,-1.3960274742597294,5.192726767252084,-0.048313307295440866,-0.2323721519228188,0.8124354980813027
5.055273990831858,1.3163503333436113,1.64895112136443,0.4805866298621897,1.748511008802459,0.7619822048712526,-6.072983560512268,-0.47138332502649355,0.5838224995138057,0.5010889020644133
5.75364279425776,0.3424150458623192,3.535210942894415,-0.4908726437545474,-6.124290993217603,0.03893863950577581,0.0903078986080672,-0.35289634114615603,0.1135373623581559,0.9018515428383826
-0.7914145388081657,-0.641131783351693,-3.1421843371098914,0.11017949798873117,-1.5665065654497141,1.8797275321992348,-4.108033014447342,0.3192285681382901,-0.49145414162956774,0.6900200189246105
-2.2650004706037876,-0.824158116301716,0.5439632535236196,-0.0028789721034083726,1.8053802457288706,1.8000070822968315,-2.697623166197026,-0.483058254963149,-0.39956485474165815,0.6453205517586835
2.421210909842757,-1.8998391879792655,-2.984400782465676,-0.14512108801362888,-5.890705456676951,0.47067784221455566,2.239581241525456,-0.5840332648806388,0.5162717410229899,-0.13173757974321312
3.0989503383658663,0.06629801937204904,1.3055449921315505,-0.41573899488605104,-5.761861911717575,-1.6001925769019478,1.9467488079703896,-0.011437163538290478,-0.13096113625715267,0.8277833366235072
6.224174562797351,-1.9367870433468153,0.7232487201393676,1.0040350115302314,4.104291839854317,0.18081960489056037,1.50614471111236,0.58545546789685,-0.32782182394446957,0.2007729933882474
2.4708653126483915,1.4358649987737224,-4.744043412732598,1.7047287850994537,-5.953221411392281,1.3447990038311013,-5.316140242410203,0.3838278636673294,0.166894201835684,0.3096096175331794
-3.8354696622421764,-1.9844234144754695,-0.6875757784673286,-0.6625630931304309,-4.195129031722937,-0.19563935678437483,-1.2262217073573707,-0.45073620549385635,0.44168938413331443,-0.3338536011846208
3.3618225706961935,1.5725212242801296,1.9162446821945478,-1.5023584450939045,-2.569891618444276,1.6532731873291193,-5.165494767820912,0.46761918748253134,-0.22394053501594074,0.08587358013364346
-1.1698906572512193,1.7700184769339251,5.660350408856741,-0.3551872918044303,2.102504914520895,-0.1730176065840041,3.183464375320452,-0.2990598605119396,0.7804099469726311,0.1725276155428135
-5.883338486495939,-1.4233714043145662,1.434336972507606,-1.0697909502277456,2.085616878820505,-0.5951082901548066,4.856268210085438,0.5222047393327094,0.5161893804125512,0.2941844911997425
4.009897882633431,-0.02864879972487122,3.4275622939114134,-0.9154484550596385,-0.07209720324300584,-1.2100717925468873,4.532730276623684,0.06240231406415017,0.176036995012902,0.749627163310411
4.057729264099291,1.608598673636005,4.741110884176698,1.838385048237979,-3.4120969307030102,1.727297163181262,0.8944376833810903,0.4974479557260568,0.07169065072279535,0.21110229352484508
-0.9734617459880086,0.24149558387149206,-1.976914400472511,-0.8457879721561916,-3.249091915002239,-1.6702880421714927,-0.04314489183132597,-0.12531826579860494,0.06005487087723551,0.8820963438472046
4.870286646966426,0.5206078770975386,0.2634539474125157,-0.285628326996334,-0.44711557345606945,-1.1628906097121963,4.056074617545302,-0.043523716125009104,0.16159176159942568,0.8911190572817402
-3.7883099811840077,0.8664910269092521,3.2654117443916766,0.299476168110937,4.558355269432647,-0.8357985901973999,4.793112298810363,0.22886362466325127,-0.34557227672957147,0.8309659970165445
2.881395372567261,1.194999311047043,2.0671211516630654,1.3853720679598776,6.193321715733508,-0.31934858190144544,3.9427809873922035,0.45023986198134525,0.22160111373174185,0.6210112275985127
3.0719217795465026,-0.18851933715192803,5.36247943664035,-0.4222962817096212,0.8222519084295437,-1.5762305720361538,-3.4442635625276963,-0.3034784531413854,0.06076309703866276,0.7878485437334348
4.2791439019040345,-0.4137891086846106,-1.3303038369443572,-1.016075927237519,-0.1053742012239729,1.2232678454024897,4.96326131923817,-0.41117912421671543,-0.27678518134716357,0.8256465155989507
-5.3993627335250505,0.2992829249604618,-0.41104649927227843,0.4571274018863134,-0.6622173724321394,-0.4054207165863395,-0.35317825188561347,-0.2121483514450292,-0.2442865097116063,0.8939256104317639
1.0299090571805616,0.003932844127107149,-0.349865695180684,1.271341239832323,3.0853387699474935,-0.6344860232752287,3.7752485959924256,-0.27808997865628915,-0.1888541784728711,0.5471246547805876
4.441852402696521,-1.386031178503238,1.0384917193383298,-0.8587520256031449,3.004004363399635,-1.044858682565267,2.152828263613279,-0.09991752793028573,-0.7611383786228646,0.23133440595009302
-3.0756343199161185,0.04457505371977266,5.634999637027373,-0.474769846174262,4.719275383697888,1.9477783248155784,4.708126660992851,-0.1739803884157336,-0.05207109423489461,0.9396668041403338
-4.196722666674814,1.2786328781406522,-5.876203597536951,-0.4267924652027686,4.65641116887237,0.7550088510396793,0.41121976736374855,0.30299158121524683,-0.6828328560654916,0.5941960754320359
-1.4084278449622865,1.2491877858811442,2.632053553589654,-0.12637872153730667,4.929603275353327,-1.0802079287254704,-4.139882644967672,-0.0023158722162551076,0.6515959756653403,0.5435681324239324
1.7936152800297842,1.8879773708070813,-3.174457439266965,-1.001318484264694,-4.527894469594894,1.4422542210945286,-3.436446892433644,0.020106061288820573,-0.5616949358303936,-0.22203615781218564
0.03992229566459127,1.9634899120088183,-6.127510284419133,0.22594436204317647,0.1543503763741194,1.229789505640619,-1.8176638632171214,-0.647351750448982,-0.07342899194274766,-0.24193721693850925
-1.1261125322280385,-1.3282480776045453,3.0246393093454804,1.1388356367525931,-4.563508691017892,-0.426171704046713,4.934886741755299,0.12520202812531933,-0.5894312925171037,-0.09821766497164107
-6.245996642632114,-0.8049637175094708,0.6913311002599993,-0.6636245613601868,-2.8631124239284724,-0.15985006038714955,-4.000069762142247,0.7121990789838509,0.09984706658390653,0.6294745514599662
0.3720930264511164,0.8267836852529036,0.9457046050139875,-1.6275626765658764,4.3257721939196,-1.3000886500500473,3.3260387276757752,-0.20392403082486282,0.10117879750460264,0.776475994776662
-1.7513022086553187,1.1310453922244093,-3.6892123332288573,-1.2533515852182808,-0.03735537150842294,-1.868255941206558,-3.450265424893893,0.1975309730323437,0.44035659462386734,0.29000886031766726
2.813593887435414,1.349533913221702,-5.265335828941101,1.5283108377524175,3.7368160829079295,1.4787371828278615,2.4922626455102295,0.5411745874105165,0.12512146056117024,0.12070055293454804
2.1873625252121967,0.10037293337945519,1.9190075396109156,1.6764386582664206,-5.0174436622061425,-0.7369420886156353,-5.36996553163585,0.26763989302423796,0.2435156290500804,0.5492308387565663
5.586752959617123,-0.21893813600244805,2.2023265516929262,1.3644802580172857,6.166963115840697,-1.352870168830937,3.761878327820953,0.1280838584819159,-0.36837764862016137,0.6529578016071345
4.866031600597409,-1.8044984925964975,3.1913774359308027,-0.5810987152137987,1.866375700868626,0.05619278415545903,-3.01763731379184,0.0640574667384323,-0.8035287929723902,0.10559083640531886
-4.581619693229936,-1.5322110676431668,-4.982264907181344,0.551160160538311,-1.8662797064218015,-1.1334662471765102,2.410076764386143,0.18168057160000906,0.6463089380659849,0.11224482281167944
2.3468305460268235,0.1566731694279908,5.463070179835088,-0.45834307423431486,4.2184389191423195,-1.6994423682712148,3.0122785411236164,0.11299580545270621,-0.026617384339717474,0.8643742553751553
6.134899517729042,1.3863928651512674,1.0005888745343459,0.5070642573086426,-1.842683259071948,0.7179408730324157,3.396166012757468,-0.7827281520267909,-0.09123703745548341,0.2459014064835322
6.257749722840246,-0.030148331998268052,-5.510020933885565,0.38343180292394097,-4.785056676223963,-1.0209398257755598,-2.1505243139999406,-0.12073102605950561,-0.02903664517496815,0.8838263839153085
2.9017352067440383,-1.2647675044859978,-4.198142987660052,-1.8201430300046901,4.6878936006047445,0.7740216974242426,-5.778272391842611,-0.37454274627809475,-0.2780941498161768,0.47538886453384194
-5.924648641185281,0.23469718590022426,-2.7313679198389096,0.38690540172771515,-0.8213715534470758,1.6932502492410184,-2.6651187720852194,0.14984840088467405,0.08911788687199296,0.9475572308530031
2.250065827592503,-1.7837827535256032,5.725608309412903,1.9230298716334087,3.0027773404461398,-0.1391501137457074,-3.516882402049598,-0.2581756305493748,0.02539352691726153,0.37774870953945966
3.925205233514437,0.9454163885880891,-3.49225726311448,-0.19513882337093724,-0.46724534102117943,1.3056421998908365,2.3090892352360006,0.3877462923857407,0.46758876477141736,0.7723796362107691
1.798184346863093,0.5993096902531136,-2.882895802956065,-0.513154960681864,-5.706481694914971,1.147764543248495,-0.8415424174671378,0.09765500262638173,-0.48431426004771494,0.8635265150138732
-0.7757262349800769,-1.0185749402654931,-3.649593344869573,0.35128771827611693,-3.3591341290418324,-1.7431645937381424,3.3598931447200835,0.35482128836160776,-0.5270038383892937,0.2860833728378873
-1.551543903856044,-0.4790576644027822,-0.8626423841616608,1.2601792936323752,-2.2502885869958966,1.0321448450313442,5.520683200191063,0.3385508453176055,-0.0844812652797534,0.7280874893866103
2.020504540815481,-0.27327567529190144,3.112238922722109,-0.16841052099445797,-1.0747934748817514,0.10113265429073293,-2.28940747479527,-0.15262371561384486,0.21492155832937965,0.9907505193252895
-4.970617283523185,-0.34059197789533924,-4.724357573015968,-0.35823410577821324,0.7150875384409359,1.722844724822587,-5.825047522070987,0.11818843363193299,0.37830534151358275,0.9016851900668407
1.525517585664419,-0.16905925339969086,-6.025520229756013,-1.0018072962451186,-4.791825230423693,-1.132823417074221,-2.831397742130868,-0.15697831075186508,0.3580119481593216,0.7675511712611744
-1.2395924275996144,0.11615757395556114,-6.26756567628459,-1.3525225574850368,-5.104806196753463,0.1986935970509749,-2.146819627760051,0.16968818272936959,-0.36584308938414384,0.8017645855696516
0.6078755645960596,-1.1127067913012887,-5.975679312659935,1.7654676050809872,-4.919649997866236,-1.4925650081531328,-4.439371859032636,0.1454743460066422,0.13503619245242046,0.5212104543790953
6.044833141355505,0.4706409606799844,1.3852417934003638,1.9467928060741184,-5.1692090579103365,1.8980035701691564,-3.7175948792812465,-0.04082937203869964,-0.280061581578962,0.4137659676355566
1.5457780847391653,-0.3196657387888333,-1.4575652227266414,1.7249733139178502,-4.40569973079038,1.9882760443049743,-1.5181892326901503,-0.2983771289113606,0.03169155519355568,0.5418806428419964
1.868612792840243,1.8716269259334406,-5.556530807240077,1.6914574517007623,0.8517110000505514,0.8175875159098092,-4.406246650387465,0.3370736488335695,-0.09752437570668464,-0.09523521953814666
0.41934613123776465,0.6940548589009747,-0.5495338192107164,-1.3800592875757731,-3.2138644169251576,1.417571163973994,-5.8470443300205,0.09160938390175322,-0.18506935143204487,0.7978450928996572
2.623307705216603,1.9975601460581074,-6.186013568899011,-1.3558172687202403,2.18725241921777,-1.760036661658607,1.127762197229588,0.5004895220895405,-0.3937055686125486,0.1965874024369612
2.311041300726864,0.35258539245628073,-1.6932801300553963,0.7891291839465557,1.1843380158535854,-1.169451311624321,0.7929824274289787,-0.14155994342958114,-0.15427269470197807,0.8372015543137787
4.796754647264929,0.6673331427617999,-0.3542986671332802,-0.7136635885221954,-5.201269209464085,-1.0214914689638852,-6.139494381228826,0.01599192878724296,0.17900162866573838,0.8912251724429742
6.112021524113554,-1.1100709914850402,3.9548418401282808,-1.3254204727800856,-2.717969560953992,-0.326890723086533,-2.20546485838144,0.44729577150810834,-0.30399760030925066,0.6649481677701512
3.747286208263856,1.8307736320616925,4.713698714654657,-1.3856885322089738,3.4752097749470865,-1.4082123467811543,5.1920666984199935,0.37337935356577523,0.5402779253519793,0.0657029993409928
0.22455491039734543,-0.654475647773173,-4.3077597534825385,-1.9527636472839816,-3.165785784739288,1.6560802531252476,3.7336131349391772,0.028804402340469562,0.30766319264390984,0.4208621404831105
5.900608969349038,-1.5969539155145078,1.157765018431208,-0.9713981038768935,0.5393478245014371,-0.7181804577461794,-2.71967268894343,0.6484145063082275,0.06784870845719351,0.05028873340622178
0.927496993428945,-1.2667273525218388,-0.38768403163021237,0.6032490601761391,-4.670033160823981,1.7223770835076162,0.07190222514380729,0.3519837203545526,0.45311794823419915,0.5992592602123252
4.013271326867339,0.6156217224842533,2.637611821755171,0.8645237639713521,4.711254707092096,0.45442174018769643,-2.7855925743793466,-0.09989553365169346,0.14807757421053605,0.9492865515426163
-5.0301588856098585,0.4250024778005659,-5.446608784641502,-1.0348261932418792,-5.517517761399989,0.19555035602626836,-4.266153150717578,-0.26702106489475325,0.06756600347173519,0.9145436033993772
1.3867159320844245,1.1634605234530704,4.042821852894591,-0.7618259674494903,0.6148689306428698,0.2520430403454359,-0.34053699214366784,0.08499538790884764,-0.7467633274967492,0.4165417853741401
1.9482304762950458,-1.1596515047058658,6.019295089210137,-1.6076806916362703,4.135017533511177,0.37638394780475126,-3.204624375246928,-0.11101039649693827,0.6236482361513361,-0.05132482191186649
3.085678008293365,-1.6620764172917122,3.4466880006767164,0.3599408889720541,-4.888976000941196,-1.681977747630519,3.150504347961969,-0.5903527615408677,0.08615481351225318,-0.0720932462073724
-2.6007250143118052,1.5572074030688539,3.2916371441390107,0.7927609788708643,-2.7807079789238562,0.8357780760864717,5.628734917506315,0.6025458644738291,0.3208099480262066,0.5962171234858389
-5.130008480305655,-0.6953494319857358,-3.332516345802378,-0.4269994623973332,3.0436981449655667,-0.10302967429845378,0.8883764128702936,0.22157584003288114,0.5042401938034459,0.8312970341301977
-2.3342146057360202,-1.4348429316515978,-2.9273133693421296,1.438721204967948,1.2863570446468353,-0.4880453072110651,3.641219130598979,-0.34396352730210566,-0.3364337550704904,-0.1918292234286441
-5.470414648366346,-0.9844356483104573,-3.3899043850398187,1.9414582486728884,2.588598194853069,0.4711437455542167,-6.217388835901421,0.3405489595249342,0.2209365982152015,-0.05282117570722433
-3.9650663737513914,0.5421651718923131,-1.510725259390279,1.6971215347162434,3.3249361924204797,-0.21046370878352016,3.1339081178806767,-0.21683765560243062,-0.3209846169075261,0.3996661751152075
5.971078307257343,-0.15607670119411754,1.7901251518799794,1.6746584602451806,-3.1566462448256636,1.5462316546651134,-5.054838482931338,0.08760039988788644,-0.412036356903283,0.5816631521247293
1.8645090225808394,1.1313526202231374,1.4394541138104717,-0.017860783389827883,1.4738795750666167,-1.3933451648822217,-3.572431878252458,0.21732632556681739,-0.6015114453387163,0.44071566989916006
-2.890064239908345,0.3911173625201525,-0.7297225137619145,-1.0220966300566419,4.808085211735926,-0.5043126388271064,-0.6778416064725672,-0.016527172388004094,0.27408505837563873,0.8832481509671875
-1.1341544785446285,-1.2722281788929894,2.9092353138037312,-0.20616695092456805,-6.075810699747456,1.856054809439188,3.965990961638396,0.335109105643417,-0.7206497568984808,0.26170020315277753
2.8079054873930493,1.476367482074116,5.109499105285711,-0.6500411744622454,1.3936410009137346,0.43523123682237674,-2.922716159738902,0.7923901340791221,-0.07357761721437442,0.429395147549838
-3.492279721824836,-1.5443709807239117,2.0009863007106476,1.1236759641231195,3.277569422733568,-0.7348984912601026,-3.70193627815706,-0.2608382160311833,0.4667339376775358,-0.03152094564163141
-0.5826059186099481,0.18725384096204234,5.26373432728506,1.4992926170962164,5.225692641150956,1.4010495405439185,5.835139927720069,0.09807630515619807,0.3881175588618956,0.5079559268352571
-0.43332003555663867,-1.8101060102676225,-5.230460876215114,-0.4388954329106274,-3.0434501336111546,-1.3202376345557307,5.692239407828626,0.6208247973940045,-0.3372826362915088,-0.025811483971629332
-3.825529969562582,1.837517089260924,3.2761358344343607,0.5637826885008939,2.210798138722592,-0.674102705363504,1.8391235980120237,0.5854935676114321,-0.4141296530308113,0.3938176329358054
-3.935146994387308,1.750821730143918,-2.489475650094945,-0.9792539508258313,2.6522047453186177,0.6257948722647275,-0.6116855856080861,0.5923313986635639,-0.32577003778772434,-0.11988636487999624
1.6635247077162765,-1.3620277129565754,2.1770035409685553,-0.9175572192192245,-2.853180132943696,-1.3512802602248617,-2.105343183945773,-0.17491341317930956,0.6934884784179995,0.3203161386240515
-2.119486682489719,-0.18328395319092294,-3.8883310213906506,-1.2279698553649347,0.5242364600901483,-1.4844903813180994,2.372546420339769,0.1499011578397731,-0.00862011573301509,0.6899811523287729
5.575975900834213,-0.29281751334248707,5.037882733172501,-1.6067336354965422,-5.740452200161904,0.8854755100553597,3.278430956647596,-0.026965380598936124,-0.5177145612373473,0.6236907517199248
4.308811506529836,-1.7727292864000743,3.4779526102577902,-0.49384506881367285,-2.4700793335115856,-1.3079043146268123,6.22995788408774,-0.21245141239088433,-0.6770674815639657,0.008355203851660935
-5.480385318155073,1.3080320584319978,1.7520501097610266,0.9403217770474686,2.659167026217763,1.4337379402927302,-3.97157160260728,-0.20300669145114597,-0.6209963458849299,0.5263539438852469
-6.269642812556352,0.39411395617306466,-1.835535490098926,-1.5048506755314492,-3.94209724845076,-0.6730027501631084,-5.3978688616630075,-0.16783508635958885,-0.35589973833722965,0.7523634278649008
-5.565170181266657,1.6641050193297766,-2.359989468117576,1.9289227898943397,5.832449624629823,-1.4297148706915448,2.699449244376157,-0.4221502742076595,-0.07831583907061622,0.3822781827749235
1.266109407435989,0.7625882924206144,-5.071841039818197,-1.2457596854617679,-5.317418412176929,0.4165368208682847,6.111583912664584,-0.4341104770944441,-0.15383604607510523,0.768418517680831
2.1601257929837443,0.8430461400877185,6.086388121783611,0.7120462166871846,-5.775319447786413,1.4680224034263905,-1.6996406728423183,0.3397325949392718,-0.5514293630523747,0.37462096099542086
-6.225192913775175,0.02893671024328226,5.488908411005872,-0.9706772512200672,-0.10659454645633026,-1.304892448870437,-5.555380043869513,0.23379714745756752,-0.1808573461524249,0.7322020595576054
-5.268355469283298,0.9080436238454217,4.5727753525213926,-1.4268046429900356,-2.6587187883005132,-1.2198821294206907,-5.942691441804065,-0.052598311309911834,-0.5621702777113153,0.5609820177369353
0.6710980057805145,0.7996886805505903,1.8573411599164844,-0.44778581079100954,0.6909286890052107,-1.6236027734551013,-4.341945292843084,-0.42640682052081363,-0.2175295841792073,0.6134690138428444
5.423340421585471,1.0460309912795873,5.309603043564102,1.666721137997469,1.8763712708732223,1.7129545924486607,-1.046196465284262,-0.09336592359653621,0.4593980612897025,0.18208170272524649
-6.234579965501142,-1.7497155366153625,-4.904839189197761,-1.618586187268559,-1.8626179709206916,0.8050832284374305,3.6505490109022167,0.39602029335521943,0.44628535695344496,0.007849337635751998
1.1330787257684856,-1.4142553017720818,3.113644122981081,-0.5807923234496042,-6.116803540682239,-0.8776455178690026,-2.1276570399893178,0.27697131004034004,0.5601683891198409,0.46150306039686495
-2.8354760776606276,1.2474806127503424,3.2646755537817738,0.7822081216505659,-4.534096213885948,1.231335638825128,2.2253300784913455,0.5180230676994884,0.0416717945939068,0.7622803613724375
-3.8328386577937184,0.5923757211260656,-0.20709378899376585,-0.2425997525750998,-4.871733066786796,0.07321710338066145,-5.024856479307113,0.25424069754829276,-0.2636051611154722,0.9560943110579921
-4.216977456086411,-1.4698147429009492,5.703599985119296,-0.8605412382244397,-1.8186336956341433,-0.7116775748158557,5.002025591437486,-0.16359441742564018,0.7334488122084402,0.09637557784599297
0.7908518463661993,1.676639595733247,-2.512943182801632,-1.5406613022722042,0.7061037662156329,-0.61785203283993,3.7919498286437987,-0.07565973240287657,-0.4604399567673379,-0.02676887688146961
4.765558015930432,-0.10970595637171288,5.920269342513985,0.21205202537762347,-2.8772398590679154,-0.0440979386229019,-5.81138272741923,0.05639478175382816,0.05463269446344509,0.9966549032852718
3.818254572904128,-1.5942597965823162,-2.4021189844022577,0.2612661880197735,-5.740232421874951,-1.682732403274207,2.4632214516194404,-0.5055289342646516,-0.39596419030546504,0.05362991192407275
-5.378479711156745,-0.09166853501049399,-2.025982844235376,-1.0876823681743342,-3.9089370428323624,1.0536451749303177,5.671369945967549,0.19225327848456544,-0.24398492197105456,0.8299757080777403
-4.519342437926154,1.8387248766965079,1.1902170436473032,0.5666416214530283,2.636675309470829,0.8164755614183239,4.016827518812245,0.3787401318549938,-0.6597963999190206,-0.012867512942672249
-0.2076337390729197,0.13343435005880444,-2.2127328490594964,-1.5789696248675318,2.067880798033312,-1.8655601232549963,-2.8180237583928944,-0.12228782160223134,-0.20137330585444385,0.7068894752898416
-5.096472902556981,-1.2370913707091278,1.7424602659911033,0.5139065208196727,-0.991550292773856,-1.6393120940420354,-0.8368236092698309,0.34282807949383265,0.5499239438293972,0.24150278696848781
-1.8495244094598347,0.881836611423799,0.9925741989800896,-0.033736930652004116,-0.1635050462492602,1.8651875490416754,3.2190554245953384,0.04090611251434427,0.621803315338128,0.6447425945212292
-0.03793672062079434,-0.08310954844408958,-5.947422487609659,1.7700370532792267,-2.27117491460234,-0.9762436724770249,6.272576102869153,-0.1622487720098386,-0.17478249429553028,0.42061255319701196
2.7467422740968273,-1.810544906802848,-5.50271840855876,-1.8979937441592085,1.2512133778816352,-1.7137419997521928,5.443357761972329,-0.3808697269673883,-0.08966973161178877,-0.05030591260652778
5.4875461426848355,0.18421626699231908,1.4649849783331428,-0.8324223938990007,-5.476504867352087,0.9498417807672621,-5.001567981312341,0.15912123884769788,0.17775548154623497,0.9768129027818926
-5.205396028808982,-0.7551075631831048,-6.123431312436201,-0.263857536974736,2.6084722306057637,1.2053957256877559,1.3100997357144513,0.3389391873465537,0.5853298332016764,0.6614105814919999
4.356739991110742,-0.3739911849315587,4.380577388359586,0.02589324199351717,-3.478666232341411,1.7765825866418639,-2.826365824605817,-0.12123576260055932,-0.26813350833397787,0.8993837828152279
-5.950909358601319,-1.0293038281798923,-1.674404230606708,-0.5946012668429437,0.3098239186112597,1.532507528143694,-2.608231867502179,0.6928459025642848,0.16392206526383218,0.5955659609786428
0.2608788359671612,-0.6394441852460826,4.041469625727397,-1.3695939468460865,-4.979911030025665,0.011981012950406988,2.158908077214579,0.29484194669127944,-0.2799356659277731,0.7167421674946873
3.711796525700028,0.35849941162126564,3.4395530021666483,-0.4291597657563049,-5.86718206145315,-1.5356027683937739,-5.793644128563808,0.18226544382268015,0.21326166334837252,0.7689727268958652
-2.1484677500152527,-0.018034634925270687,-1.8046524052688415,0.24239790026556873,-0.24354909493058674,0.7117712074557612,2.097044774356383,0.08182447017759775,-0.2066716555161791,1.0029833967051767
-2.285114312314986,-0.6151421785556339,1.0694566398147698,0.38572987156336724,-2.327369084717608,-0.6787284568982992,2.4372053656180084,-0.4691757202559416,-0.1262066443135068,0.7535870158542357
1.8514799353234332,-1.4597967812809012,-0.7405139912770586,1.570824314842361,-5.824000708127792,1.4206557859368547,-4.230482347274356,-0.283760663987745,0.158546624246518,0.47483089799353606
0.09104282371915229,-0.30265428430795405,-6.152775522991277,1.661587748358528,-0.566139144681121,1.81707310704246,-2.678496603701024,-0.19111310395387993,0.002127223935275299,0.4859888391001184
4.600423714104614,1.689558295982522,0.7138151496170044,-1.18928884852913,2.326707747247844,0.19591226611784052,5.583292603108981,0.3319592939336871,0.653080681953352,0.43930627884317647
-0.7627429036602225,-0.925945409440712,-4.543115261234015,0.7945342747467179,5.954816814396113,-1.886624917714406,3.0199936560132725,0.28293734670116444,-0.4673737714571476,0.451692972841001
5.362245353749413,-1.7008738630906026,-4.896264233466968,0.7678283937988346,1.858420001251102,-1.7246903387350172,4.200349767018525,0.14810232054683828,-0.5395920428151583,0.19866262144212693
0.2942035289318481,1.6287894933464502,4.747565465268367,1.250031076200663,0.19969013682993175,-0.993157433002271,0.07505232912382453,-0.6225398245760329,0.10890665136348399,0.24631811192640057
-5.013809094809643,0.6353845938937046,-4.597246126483665,0.04469185000289233,-5.596962404464769,-0.8019500389014165,-3.365069413987465,-0.1364102376718492,-0.43254437049131206,0.7982789321777612
1.5075961764585815,1.1471468480900349,-5.560274890970992,1.4011347406215369,4.531242248629833,-0.6309237028479089,1.9970910685872463,0.298700286705065,-0.42989037964733734,0.23188772269123986
-1.2231803218046737,-1.383236471241474,0.3599999771526665,-1.6545613019936134,4.753610271773607,1.6971590376384342,4.03946100086323,0.39128447289456736,-0.40006262839632317,-0.07320899054926036
0.7853531966950911,0.23039436450181983,6.086668650107678,-1.0083932406752685,-5.326088524230594,0.24776369440471102,-2.150452891505102,0.19401743413523154,0.13795047821750198,0.950041442129664
-2.2314250135309646,-1.9716585833202078,1.2087669839220379,-0.9438651908975437,-3.920496634699927,-1.8382722744279851,-1.7036185994663224,-0.2558079087204935,-0.5282832819097257,-0.09447880815487666
4.759849037173905,-0.6533167696105107,2.249172079102096,1.0261878536076292,-2.1590538365710934,1.286562940048165,2.41000852541688,-0.2893562292172742,-0.5614305604451234,0.5367834183014012
0.7440823924839508,-1.9960301437974843,-5.83925998000953,1.9634633764242535,3.5454860792047063,1.7502610350917882,5.052928253770426,0.35978375580531974,0.1883935863406815,0.3080705588394623
-6.0232361317270495,1.1673891591642955,-0.6136094552198985,1.1582328160026227,-6.195649750907883,-0.847202795197743,3.156626623938755,-0.6327184945245018,0.010437401532474527,0.28342559800800277
3.680341104835967,0.47885840485849585,-2.4962222605549274,-0.7585496348485483,5.86255538334393,-0.2431512830631819,-0.6641030889374067,0.33774761804274844,0.367446716260966,0.7299272128266796
0.6572993430231859,-0.361990652542445,0.6615548513435217,-0.2706583089297685,4.103539390203465,1.6362040791931358,5.427304863280942,0.19749902557112492,0.31449856523369785,0.8812853855566596
0.8075603452170954,-0.23140577014201869,2.5778151384254846,1.3532943651836264,0.7910569603536972,0.7999240872890452,3.136600645058876,0.519238354241424,0.23543194717722754,0.5022138307470014
2.215505835569121,0.984534222917238,-3.6594146230966604,-0.006501811912809963,1.1086530458398949,-1.9900882765719077,4.470889110699846,0.3484526267475039,-0.344781822188498,0.5952327600846693
1.3819078260680957,-1.483454673207187,3.9734448315523894,0.8682278657621785,3.2442422659032806,-0.4318301525525752,4.448783484089101,-0.18910230722523616,0.6038473615769252,-0.07631365017850943
-1.0798135684175305,0.2820366117823654,-6.271932665529587,0.5794924587114489,2.740287949126885,0.26843746195516927,-0.04322125793218223,-0.1984420626799358,0.38858464658094577,0.8197727492954235
3.8928021098190557,0.7254908686609673,-2.7873900611165117,1.8362933523199434,2.603275959093481,1.9517557156496985,5.919042132336986,0.10059604490218559,-0.13916746651164993,0.7012794391947812
5.2615061184947285,1.0214861649012303,1.37443286832191,-1.3113173452683031,0.5444938028423971,1.0615060895773092,0.26196591334193187,0.06892440814116962,0.569341184562396,0.6731527970867186
4.625083452775061,-1.561376403233207,-1.495389228509156,0.023857674374629045,-0.8499942838840031,-1.5656538087137877,-4.3516846267994405,-0.06205535666227782,-0.6575090064419072,0.22022309659339617
4.240473198264918,-0.062462963194195975,-5.668046319985741,-1.9340349640894003,-0.33314895095125774,-1.3424850963022252,2.576381881750227,-0.039996734313982533,-0.31693309708800604,0.4523303749077187
3.7092626893485567,-1.0868131661715776,1.1577424277151662,-1.382221426058456,-2.4670018959744993,1.5551819767257333,0.5538720290178238,-0.2108883810053643,-0.565268845549518,0.28012703191392535
4.846762011011154,-1.0990087832819722,-2.134894248796755,-0.1161914461727318,-0.25019425555654173,1.9905918687348017,-4.8425667937226065,0.20375277789040408,-0.7238172342160519,0.39280920012678966
4.420680847155981,1.4547281576874806,0.6681748121146089,-0.623851326963385,0.24147986986100012,-0.8301291807737448,3.75678955240564,0.34085064359240735,0.5479120181606852,0.5076176929885988
-0.021613766598253648,1.7033687155098023,1.54100328511191,0.057277332458733454,2.651031085959313,0.015731857720937104,5.080599761268256,-0.8186256410195955,-0.12153523819085149,0.12485738750245906
-3.9633587312612737,1.8933947349836227,3.9211133312509725,1.4429334474594784,-0.21467762541934654,1.3488061973503895,-2.4269175102703033,0.07904159608851485,-0.48619372569564756,0.45146970991703567
3.290069122766041,-1.4381993664439094,-2.4234279355108908,-0.2170693465610687,-2.2316643401186216,-0.45193153750326553,4.020515594483247,-0.7836849870650403,-0.20507077061025877,0.2623746366841235
-3.0561507946943753,0.9811246886182889,-5.354176411957653,1.0629564300602432,3.6678119299419487,-0.39320489799007197,2.794321458983428,0.4347458259657293,0.3936079725367011,0.3433917345052502
